%
O0000(2)
(DATE=DD-MM-YY - 19-03-22 TIME=HH:MM - 14:18)
(MCX FILE - T)
(NC FILE - D:\MECHANICAL ENGINEERING (PROJECT)\CAM\MASTERCAM\TUTORIAL\MILLING\2.NC)
(MATERIAL - ALUMINUM MM - 2024)
( T219 |    10. FLAT ENDMILL | H219 )
( T110 |  10. DRILL | H110 )
N100 G21
N102 G0 G17 G40 G49 G80 G90
N104 T219 M6
N106 G0 G90 G54 X-75. Y10. A0. S1909 M3
N108 G43 H219 Z25.
N110 Z10.
N112 G1 Z-1. F190.9
N114 X-65. F381.8
N116 G2 X-55. Y0. I0. J-10.
N118 G1 Y-25.
N120 G3 X-40. Y-40. I15. J0.
N122 G1 X40.
N124 G3 X55. Y-25. I0. J15.
N126 G1 Y25.
N128 G3 X40. Y40. I-15. J0.
N130 G1 X-40.
N132 G3 X-55. Y25. I0. J-15.
N134 G1 Y0.
N136 G2 X-65. Y-10. I-10. J0.
N138 G1 X-75.
N140 G0 Z24.
N142 Y10.
N144 Z9.
N146 G1 Z-2. F190.9
N148 X-65. F381.8
N150 G2 X-55. Y0. I0. J-10.
N152 G1 Y-25.
N154 G3 X-40. Y-40. I15. J0.
N156 G1 X40.
N158 G3 X55. Y-25. I0. J15.
N160 G1 Y25.
N162 G3 X40. Y40. I-15. J0.
N164 G1 X-40.
N166 G3 X-55. Y25. I0. J-15.
N168 G1 Y0.
N170 G2 X-65. Y-10. I-10. J0.
N172 G1 X-75.
N174 G0 Z23.
N176 Y10.
N178 Z8.
N180 G1 Z-3. F190.9
N182 X-65. F381.8
N184 G2 X-55. Y0. I0. J-10.
N186 G1 Y-25.
N188 G3 X-40. Y-40. I15. J0.
N190 G1 X40.
N192 G3 X55. Y-25. I0. J15.
N194 G1 Y25.
N196 G3 X40. Y40. I-15. J0.
N198 G1 X-40.
N200 G3 X-55. Y25. I0. J-15.
N202 G1 Y0.
N204 G2 X-65. Y-10. I-10. J0.
N206 G1 X-75.
N208 G0 Z22.
N210 Y10.
N212 Z7.
N214 G1 Z-4. F190.9
N216 X-65. F381.8
N218 G2 X-55. Y0. I0. J-10.
N220 G1 Y-25.
N222 G3 X-40. Y-40. I15. J0.
N224 G1 X40.
N226 G3 X55. Y-25. I0. J15.
N228 G1 Y25.
N230 G3 X40. Y40. I-15. J0.
N232 G1 X-40.
N234 G3 X-55. Y25. I0. J-15.
N236 G1 Y0.
N238 G2 X-65. Y-10. I-10. J0.
N240 G1 X-75.
N242 G0 Z21.
N244 Y10.
N246 Z6.
N248 G1 Z-5. F190.9
N250 X-65. F381.8
N252 G2 X-55. Y0. I0. J-10.
N254 G1 Y-25.
N256 G3 X-40. Y-40. I15. J0.
N258 G1 X40.
N260 G3 X55. Y-25. I0. J15.
N262 G1 Y25.
N264 G3 X40. Y40. I-15. J0.
N266 G1 X-40.
N268 G3 X-55. Y25. I0. J-15.
N270 G1 Y0.
N272 G2 X-65. Y-10. I-10. J0.
N274 G1 X-75.
N276 G0 Z20.
N278 Y10.
N280 Z5.
N282 G1 Z-6. F190.9
N284 X-65. F381.8
N286 G2 X-55. Y0. I0. J-10.
N288 G1 Y-25.
N290 G3 X-40. Y-40. I15. J0.
N292 G1 X40.
N294 G3 X55. Y-25. I0. J15.
N296 G1 Y25.
N298 G3 X40. Y40. I-15. J0.
N300 G1 X-40.
N302 G3 X-55. Y25. I0. J-15.
N304 G1 Y0.
N306 G2 X-65. Y-10. I-10. J0.
N308 G1 X-75.
N310 G0 Z19.
N312 Y10.
N314 Z4.
N316 G1 Z-7. F190.9
N318 X-65. F381.8
N320 G2 X-55. Y0. I0. J-10.
N322 G1 Y-25.
N324 G3 X-40. Y-40. I15. J0.
N326 G1 X40.
N328 G3 X55. Y-25. I0. J15.
N330 G1 Y25.
N332 G3 X40. Y40. I-15. J0.
N334 G1 X-40.
N336 G3 X-55. Y25. I0. J-15.
N338 G1 Y0.
N340 G2 X-65. Y-10. I-10. J0.
N342 G1 X-75.
N344 G0 Z18.
N346 Y10.
N348 Z3.
N350 G1 Z-8. F190.9
N352 X-65. F381.8
N354 G2 X-55. Y0. I0. J-10.
N356 G1 Y-25.
N358 G3 X-40. Y-40. I15. J0.
N360 G1 X40.
N362 G3 X55. Y-25. I0. J15.
N364 G1 Y25.
N366 G3 X40. Y40. I-15. J0.
N368 G1 X-40.
N370 G3 X-55. Y25. I0. J-15.
N372 G1 Y0.
N374 G2 X-65. Y-10. I-10. J0.
N376 G1 X-75.
N378 G0 Z17.
N380 Y10.
N382 Z2.
N384 G1 Z-9. F190.9
N386 X-65. F381.8
N388 G2 X-55. Y0. I0. J-10.
N390 G1 Y-25.
N392 G3 X-40. Y-40. I15. J0.
N394 G1 X40.
N396 G3 X55. Y-25. I0. J15.
N398 G1 Y25.
N400 G3 X40. Y40. I-15. J0.
N402 G1 X-40.
N404 G3 X-55. Y25. I0. J-15.
N406 G1 Y0.
N408 G2 X-65. Y-10. I-10. J0.
N410 G1 X-75.
N412 G0 Z16.
N414 Y10.
N416 Z1.
N418 G1 Z-10. F190.9
N420 X-65. F381.8
N422 G2 X-55. Y0. I0. J-10.
N424 G1 Y-25.
N426 G3 X-40. Y-40. I15. J0.
N428 G1 X40.
N430 G3 X55. Y-25. I0. J15.
N432 G1 Y25.
N434 G3 X40. Y40. I-15. J0.
N436 G1 X-40.
N438 G3 X-55. Y25. I0. J-15.
N440 G1 Y0.
N442 G2 X-65. Y-10. I-10. J0.
N444 G1 X-75.
N446 G0 Z15.
N448 Y10.
N450 Z0.
N452 G1 Z-11. F190.9
N454 X-65. F381.8
N456 G2 X-55. Y0. I0. J-10.
N458 G1 Y-25.
N460 G3 X-40. Y-40. I15. J0.
N462 G1 X40.
N464 G3 X55. Y-25. I0. J15.
N466 G1 Y25.
N468 G3 X40. Y40. I-15. J0.
N470 G1 X-40.
N472 G3 X-55. Y25. I0. J-15.
N474 G1 Y0.
N476 G2 X-65. Y-10. I-10. J0.
N478 G1 X-75.
N480 G0 Z14.
N482 Y10.
N484 Z-1.
N486 G1 Z-12. F190.9
N488 X-65. F381.8
N490 G2 X-55. Y0. I0. J-10.
N492 G1 Y-25.
N494 G3 X-40. Y-40. I15. J0.
N496 G1 X40.
N498 G3 X55. Y-25. I0. J15.
N500 G1 Y25.
N502 G3 X40. Y40. I-15. J0.
N504 G1 X-40.
N506 G3 X-55. Y25. I0. J-15.
N508 G1 Y0.
N510 G2 X-65. Y-10. I-10. J0.
N512 G1 X-75.
N514 G0 Z13.
N516 Y10.
N518 Z-2.
N520 G1 Z-13. F190.9
N522 X-65. F381.8
N524 G2 X-55. Y0. I0. J-10.
N526 G1 Y-25.
N528 G3 X-40. Y-40. I15. J0.
N530 G1 X40.
N532 G3 X55. Y-25. I0. J15.
N534 G1 Y25.
N536 G3 X40. Y40. I-15. J0.
N538 G1 X-40.
N540 G3 X-55. Y25. I0. J-15.
N542 G1 Y0.
N544 G2 X-65. Y-10. I-10. J0.
N546 G1 X-75.
N548 G0 Z12.
N550 Y10.
N552 Z-3.
N554 G1 Z-14. F190.9
N556 X-65. F381.8
N558 G2 X-55. Y0. I0. J-10.
N560 G1 Y-25.
N562 G3 X-40. Y-40. I15. J0.
N564 G1 X40.
N566 G3 X55. Y-25. I0. J15.
N568 G1 Y25.
N570 G3 X40. Y40. I-15. J0.
N572 G1 X-40.
N574 G3 X-55. Y25. I0. J-15.
N576 G1 Y0.
N578 G2 X-65. Y-10. I-10. J0.
N580 G1 X-75.
N582 G0 Z11.
N584 Y10.
N586 Z-4.
N588 G1 Z-15. F190.9
N590 X-65. F381.8
N592 G2 X-55. Y0. I0. J-10.
N594 G1 Y-25.
N596 G3 X-40. Y-40. I15. J0.
N598 G1 X40.
N600 G3 X55. Y-25. I0. J15.
N602 G1 Y25.
N604 G3 X40. Y40. I-15. J0.
N606 G1 X-40.
N608 G3 X-55. Y25. I0. J-15.
N610 G1 Y0.
N612 G2 X-65. Y-10. I-10. J0.
N614 G1 X-75.
N616 G0 Z10.
N618 Y10.
N620 Z-5.
N622 G1 Z-16. F190.9
N624 X-65. F381.8
N626 G2 X-55. Y0. I0. J-10.
N628 G1 Y-25.
N630 G3 X-40. Y-40. I15. J0.
N632 G1 X40.
N634 G3 X55. Y-25. I0. J15.
N636 G1 Y25.
N638 G3 X40. Y40. I-15. J0.
N640 G1 X-40.
N642 G3 X-55. Y25. I0. J-15.
N644 G1 Y0.
N646 G2 X-65. Y-10. I-10. J0.
N648 G1 X-75.
N650 G0 Z9.
N652 Y10.
N654 Z-6.
N656 G1 Z-17. F190.9
N658 X-65. F381.8
N660 G2 X-55. Y0. I0. J-10.
N662 G1 Y-25.
N664 G3 X-40. Y-40. I15. J0.
N666 G1 X40.
N668 G3 X55. Y-25. I0. J15.
N670 G1 Y25.
N672 G3 X40. Y40. I-15. J0.
N674 G1 X-40.
N676 G3 X-55. Y25. I0. J-15.
N678 G1 Y0.
N680 G2 X-65. Y-10. I-10. J0.
N682 G1 X-75.
N684 G0 Z8.
N686 Y10.
N688 Z-7.
N690 G1 Z-18. F190.9
N692 X-65. F381.8
N694 G2 X-55. Y0. I0. J-10.
N696 G1 Y-25.
N698 G3 X-40. Y-40. I15. J0.
N700 G1 X40.
N702 G3 X55. Y-25. I0. J15.
N704 G1 Y25.
N706 G3 X40. Y40. I-15. J0.
N708 G1 X-40.
N710 G3 X-55. Y25. I0. J-15.
N712 G1 Y0.
N714 G2 X-65. Y-10. I-10. J0.
N716 G1 X-75.
N718 G0 Z7.
N720 Y10.
N722 Z-8.
N724 G1 Z-19. F190.9
N726 X-65. F381.8
N728 G2 X-55. Y0. I0. J-10.
N730 G1 Y-25.
N732 G3 X-40. Y-40. I15. J0.
N734 G1 X40.
N736 G3 X55. Y-25. I0. J15.
N738 G1 Y25.
N740 G3 X40. Y40. I-15. J0.
N742 G1 X-40.
N744 G3 X-55. Y25. I0. J-15.
N746 G1 Y0.
N748 G2 X-65. Y-10. I-10. J0.
N750 G1 X-75.
N752 G0 Z6.
N754 Y10.
N756 Z-9.
N758 G1 Z-20. F190.9
N760 X-65. F381.8
N762 G2 X-55. Y0. I0. J-10.
N764 G1 Y-25.
N766 G3 X-40. Y-40. I15. J0.
N768 G1 X40.
N770 G3 X55. Y-25. I0. J15.
N772 G1 Y25.
N774 G3 X40. Y40. I-15. J0.
N776 G1 X-40.
N778 G3 X-55. Y25. I0. J-15.
N780 G1 Y0.
N782 G2 X-65. Y-10. I-10. J0.
N784 G1 X-75.
N786 G0 Z5.
N788 Y10.
N790 Z-10.
N792 G1 Z-21. F190.9
N794 X-65. F381.8
N796 G2 X-55. Y0. I0. J-10.
N798 G1 Y-25.
N800 G3 X-40. Y-40. I15. J0.
N802 G1 X40.
N804 G3 X55. Y-25. I0. J15.
N806 G1 Y25.
N808 G3 X40. Y40. I-15. J0.
N810 G1 X-40.
N812 G3 X-55. Y25. I0. J-15.
N814 G1 Y0.
N816 G2 X-65. Y-10. I-10. J0.
N818 G1 X-75.
N820 G0 Z4.
N822 Y10.
N824 Z-11.
N826 G1 Z-22. F190.9
N828 X-65. F381.8
N830 G2 X-55. Y0. I0. J-10.
N832 G1 Y-25.
N834 G3 X-40. Y-40. I15. J0.
N836 G1 X40.
N838 G3 X55. Y-25. I0. J15.
N840 G1 Y25.
N842 G3 X40. Y40. I-15. J0.
N844 G1 X-40.
N846 G3 X-55. Y25. I0. J-15.
N848 G1 Y0.
N850 G2 X-65. Y-10. I-10. J0.
N852 G1 X-75.
N854 G0 Z3.
N856 Y10.
N858 Z-12.
N860 G1 Z-23. F190.9
N862 X-65. F381.8
N864 G2 X-55. Y0. I0. J-10.
N866 G1 Y-25.
N868 G3 X-40. Y-40. I15. J0.
N870 G1 X40.
N872 G3 X55. Y-25. I0. J15.
N874 G1 Y25.
N876 G3 X40. Y40. I-15. J0.
N878 G1 X-40.
N880 G3 X-55. Y25. I0. J-15.
N882 G1 Y0.
N884 G2 X-65. Y-10. I-10. J0.
N886 G1 X-75.
N888 G0 Z2.
N890 Y10.
N892 Z-13.
N894 G1 Z-24. F190.9
N896 X-65. F381.8
N898 G2 X-55. Y0. I0. J-10.
N900 G1 Y-25.
N902 G3 X-40. Y-40. I15. J0.
N904 G1 X40.
N906 G3 X55. Y-25. I0. J15.
N908 G1 Y25.
N910 G3 X40. Y40. I-15. J0.
N912 G1 X-40.
N914 G3 X-55. Y25. I0. J-15.
N916 G1 Y0.
N918 G2 X-65. Y-10. I-10. J0.
N920 G1 X-75.
N922 G0 Z1.
N924 Y10.
N926 Z-14.
N928 G1 Z-25. F190.9
N930 X-65. F381.8
N932 G2 X-55. Y0. I0. J-10.
N934 G1 Y-25.
N936 G3 X-40. Y-40. I15. J0.
N938 G1 X40.
N940 G3 X55. Y-25. I0. J15.
N942 G1 Y25.
N944 G3 X40. Y40. I-15. J0.
N946 G1 X-40.
N948 G3 X-55. Y25. I0. J-15.
N950 G1 Y0.
N952 G2 X-65. Y-10. I-10. J0.
N954 G1 X-75.
N956 G0 Z0.
N958 Y10.
N960 Z-15.
N962 G1 Z-26. F190.9
N964 X-65. F381.8
N966 G2 X-55. Y0. I0. J-10.
N968 G1 Y-25.
N970 G3 X-40. Y-40. I15. J0.
N972 G1 X40.
N974 G3 X55. Y-25. I0. J15.
N976 G1 Y25.
N978 G3 X40. Y40. I-15. J0.
N980 G1 X-40.
N982 G3 X-55. Y25. I0. J-15.
N984 G1 Y0.
N986 G2 X-65. Y-10. I-10. J0.
N988 G1 X-75.
N990 G0 Z-1.
N992 Y10.
N994 Z-16.
N996 G1 Z-27. F190.9
N998 X-65. F381.8
N1000 G2 X-55. Y0. I0. J-10.
N1002 G1 Y-25.
N1004 G3 X-40. Y-40. I15. J0.
N1006 G1 X40.
N1008 G3 X55. Y-25. I0. J15.
N1010 G1 Y25.
N1012 G3 X40. Y40. I-15. J0.
N1014 G1 X-40.
N1016 G3 X-55. Y25. I0. J-15.
N1018 G1 Y0.
N1020 G2 X-65. Y-10. I-10. J0.
N1022 G1 X-75.
N1024 G0 Z-2.
N1026 Y10.
N1028 Z-17.
N1030 G1 Z-28. F190.9
N1032 X-65. F381.8
N1034 G2 X-55. Y0. I0. J-10.
N1036 G1 Y-25.
N1038 G3 X-40. Y-40. I15. J0.
N1040 G1 X40.
N1042 G3 X55. Y-25. I0. J15.
N1044 G1 Y25.
N1046 G3 X40. Y40. I-15. J0.
N1048 G1 X-40.
N1050 G3 X-55. Y25. I0. J-15.
N1052 G1 Y0.
N1054 G2 X-65. Y-10. I-10. J0.
N1056 G1 X-75.
N1058 G0 Z-3.
N1060 Y10.
N1062 Z-18.
N1064 G1 Z-29. F190.9
N1066 X-65. F381.8
N1068 G2 X-55. Y0. I0. J-10.
N1070 G1 Y-25.
N1072 G3 X-40. Y-40. I15. J0.
N1074 G1 X40.
N1076 G3 X55. Y-25. I0. J15.
N1078 G1 Y25.
N1080 G3 X40. Y40. I-15. J0.
N1082 G1 X-40.
N1084 G3 X-55. Y25. I0. J-15.
N1086 G1 Y0.
N1088 G2 X-65. Y-10. I-10. J0.
N1090 G1 X-75.
N1092 G0 Z-4.
N1094 Y10.
N1096 Z-19.
N1098 G1 Z-30. F190.9
N1100 X-65. F381.8
N1102 G2 X-55. Y0. I0. J-10.
N1104 G1 Y-25.
N1106 G3 X-40. Y-40. I15. J0.
N1108 G1 X40.
N1110 G3 X55. Y-25. I0. J15.
N1112 G1 Y25.
N1114 G3 X40. Y40. I-15. J0.
N1116 G1 X-40.
N1118 G3 X-55. Y25. I0. J-15.
N1120 G1 Y0.
N1122 G2 X-65. Y-10. I-10. J0.
N1124 G1 X-75.
N1126 G0 Z-5.
N1128 Y10.
N1130 Z-20.
N1132 G1 Z-31. F190.9
N1134 X-65. F381.8
N1136 G2 X-55. Y0. I0. J-10.
N1138 G1 Y-25.
N1140 G3 X-40. Y-40. I15. J0.
N1142 G1 X40.
N1144 G3 X55. Y-25. I0. J15.
N1146 G1 Y25.
N1148 G3 X40. Y40. I-15. J0.
N1150 G1 X-40.
N1152 G3 X-55. Y25. I0. J-15.
N1154 G1 Y0.
N1156 G2 X-65. Y-10. I-10. J0.
N1158 G1 X-75.
N1160 G0 Z-6.
N1162 Y10.
N1164 Z-21.
N1166 G1 Z-32. F190.9
N1168 X-65. F381.8
N1170 G2 X-55. Y0. I0. J-10.
N1172 G1 Y-25.
N1174 G3 X-40. Y-40. I15. J0.
N1176 G1 X40.
N1178 G3 X55. Y-25. I0. J15.
N1180 G1 Y25.
N1182 G3 X40. Y40. I-15. J0.
N1184 G1 X-40.
N1186 G3 X-55. Y25. I0. J-15.
N1188 G1 Y0.
N1190 G2 X-65. Y-10. I-10. J0.
N1192 G1 X-75.
N1194 G0 Z-7.
N1196 Y10.
N1198 Z-22.
N1200 G1 Z-33. F190.9
N1202 X-65. F381.8
N1204 G2 X-55. Y0. I0. J-10.
N1206 G1 Y-25.
N1208 G3 X-40. Y-40. I15. J0.
N1210 G1 X40.
N1212 G3 X55. Y-25. I0. J15.
N1214 G1 Y25.
N1216 G3 X40. Y40. I-15. J0.
N1218 G1 X-40.
N1220 G3 X-55. Y25. I0. J-15.
N1222 G1 Y0.
N1224 G2 X-65. Y-10. I-10. J0.
N1226 G1 X-75.
N1228 G0 Z-8.
N1230 Y10.
N1232 Z-23.
N1234 G1 Z-34. F190.9
N1236 X-65. F381.8
N1238 G2 X-55. Y0. I0. J-10.
N1240 G1 Y-25.
N1242 G3 X-40. Y-40. I15. J0.
N1244 G1 X40.
N1246 G3 X55. Y-25. I0. J15.
N1248 G1 Y25.
N1250 G3 X40. Y40. I-15. J0.
N1252 G1 X-40.
N1254 G3 X-55. Y25. I0. J-15.
N1256 G1 Y0.
N1258 G2 X-65. Y-10. I-10. J0.
N1260 G1 X-75.
N1262 G0 Z-9.
N1264 Y10.
N1266 Z-24.
N1268 G1 Z-35. F190.9
N1270 X-65. F381.8
N1272 G2 X-55. Y0. I0. J-10.
N1274 G1 Y-25.
N1276 G3 X-40. Y-40. I15. J0.
N1278 G1 X40.
N1280 G3 X55. Y-25. I0. J15.
N1282 G1 Y25.
N1284 G3 X40. Y40. I-15. J0.
N1286 G1 X-40.
N1288 G3 X-55. Y25. I0. J-15.
N1290 G1 Y0.
N1292 G2 X-65. Y-10. I-10. J0.
N1294 G1 X-75.
N1296 G0 Z-10.
N1298 Y10.
N1300 Z-25.
N1302 G1 Z-36. F190.9
N1304 X-65. F381.8
N1306 G2 X-55. Y0. I0. J-10.
N1308 G1 Y-25.
N1310 G3 X-40. Y-40. I15. J0.
N1312 G1 X40.
N1314 G3 X55. Y-25. I0. J15.
N1316 G1 Y25.
N1318 G3 X40. Y40. I-15. J0.
N1320 G1 X-40.
N1322 G3 X-55. Y25. I0. J-15.
N1324 G1 Y0.
N1326 G2 X-65. Y-10. I-10. J0.
N1328 G1 X-75.
N1330 G0 Z-11.
N1332 Y10.
N1334 Z-26.
N1336 G1 Z-37. F190.9
N1338 X-65. F381.8
N1340 G2 X-55. Y0. I0. J-10.
N1342 G1 Y-25.
N1344 G3 X-40. Y-40. I15. J0.
N1346 G1 X40.
N1348 G3 X55. Y-25. I0. J15.
N1350 G1 Y25.
N1352 G3 X40. Y40. I-15. J0.
N1354 G1 X-40.
N1356 G3 X-55. Y25. I0. J-15.
N1358 G1 Y0.
N1360 G2 X-65. Y-10. I-10. J0.
N1362 G1 X-75.
N1364 G0 Z-12.
N1366 Y10.
N1368 Z-27.
N1370 G1 Z-38. F190.9
N1372 X-65. F381.8
N1374 G2 X-55. Y0. I0. J-10.
N1376 G1 Y-25.
N1378 G3 X-40. Y-40. I15. J0.
N1380 G1 X40.
N1382 G3 X55. Y-25. I0. J15.
N1384 G1 Y25.
N1386 G3 X40. Y40. I-15. J0.
N1388 G1 X-40.
N1390 G3 X-55. Y25. I0. J-15.
N1392 G1 Y0.
N1394 G2 X-65. Y-10. I-10. J0.
N1396 G1 X-75.
N1398 G0 Z-13.
N1400 Y10.
N1402 Z-28.
N1404 G1 Z-39. F190.9
N1406 X-65. F381.8
N1408 G2 X-55. Y0. I0. J-10.
N1410 G1 Y-25.
N1412 G3 X-40. Y-40. I15. J0.
N1414 G1 X40.
N1416 G3 X55. Y-25. I0. J15.
N1418 G1 Y25.
N1420 G3 X40. Y40. I-15. J0.
N1422 G1 X-40.
N1424 G3 X-55. Y25. I0. J-15.
N1426 G1 Y0.
N1428 G2 X-65. Y-10. I-10. J0.
N1430 G1 X-75.
N1432 G0 Z-14.
N1434 Y10.
N1436 Z-29.
N1438 G1 Z-40. F190.9
N1440 X-65. F381.8
N1442 G2 X-55. Y0. I0. J-10.
N1444 G1 Y-25.
N1446 G3 X-40. Y-40. I15. J0.
N1448 G1 X40.
N1450 G3 X55. Y-25. I0. J15.
N1452 G1 Y25.
N1454 G3 X40. Y40. I-15. J0.
N1456 G1 X-40.
N1458 G3 X-55. Y25. I0. J-15.
N1460 G1 Y0.
N1462 G2 X-65. Y-10. I-10. J0.
N1464 G1 X-75.
N1466 G0 Z25.
N1468 Y10.
N1470 Z10.
N1472 G1 Z-1. F190.9
N1474 X-65. F381.8
N1476 G2 X-55. Y0. I0. J-10.
N1478 G3 X0. Y-55. I55. J0.
N1480 X55. Y0. I0. J55.
N1482 X0. Y55. I-55. J0.
N1484 X-55. Y0. I0. J-55.
N1486 G2 X-65. Y-10. I-10. J0.
N1488 G1 X-75.
N1490 G0 Z24.
N1492 X-70. Y10.
N1494 Z10.
N1496 G1 Z-1. F190.9
N1498 X-60. F381.8
N1500 G2 X-50. Y0. I0. J-10.
N1502 G3 X0. Y-50. I50. J0.
N1504 X50. Y0. I0. J50.
N1506 X0. Y50. I-50. J0.
N1508 X-50. Y0. I0. J-50.
N1510 G2 X-60. Y-10. I-10. J0.
N1512 G1 X-70.
N1514 G0 Z24.
N1516 X-65. Y10.
N1518 Z10.
N1520 G1 Z-1. F190.9
N1522 X-55. F381.8
N1524 G2 X-45. Y0. I0. J-10.
N1526 G3 X0. Y-45. I45. J0.
N1528 X45. Y0. I0. J45.
N1530 X0. Y45. I-45. J0.
N1532 X-45. Y0. I0. J-45.
N1534 G2 X-55. Y-10. I-10. J0.
N1536 G1 X-65.
N1538 G0 Z24.
N1540 X-60. Y10.
N1542 Z10.
N1544 G1 Z-1. F190.9
N1546 X-50. F381.8
N1548 G2 X-40. Y0. I0. J-10.
N1550 G3 X0. Y-40. I40. J0.
N1552 X40. Y0. I0. J40.
N1554 X0. Y40. I-40. J0.
N1556 X-40. Y0. I0. J-40.
N1558 G2 X-50. Y-10. I-10. J0.
N1560 G1 X-60.
N1562 G0 Z24.
N1564 X-55. Y10.
N1566 Z10.
N1568 G1 Z-1. F190.9
N1570 X-45. F381.8
N1572 G2 X-35. Y0. I0. J-10.
N1574 G3 X0. Y-35. I35. J0.
N1576 X35. Y0. I0. J35.
N1578 X0. Y35. I-35. J0.
N1580 X-35. Y0. I0. J-35.
N1582 G2 X-45. Y-10. I-10. J0.
N1584 G1 X-55.
N1586 G0 Z24.
N1588 X-75. Y10.
N1590 Z9.
N1592 G1 Z-2. F190.9
N1594 X-65. F381.8
N1596 G2 X-55. Y0. I0. J-10.
N1598 G3 X0. Y-55. I55. J0.
N1600 X55. Y0. I0. J55.
N1602 X0. Y55. I-55. J0.
N1604 X-55. Y0. I0. J-55.
N1606 G2 X-65. Y-10. I-10. J0.
N1608 G1 X-75.
N1610 G0 Z23.
N1612 X-70. Y10.
N1614 Z9.
N1616 G1 Z-2. F190.9
N1618 X-60. F381.8
N1620 G2 X-50. Y0. I0. J-10.
N1622 G3 X0. Y-50. I50. J0.
N1624 X50. Y0. I0. J50.
N1626 X0. Y50. I-50. J0.
N1628 X-50. Y0. I0. J-50.
N1630 G2 X-60. Y-10. I-10. J0.
N1632 G1 X-70.
N1634 G0 Z23.
N1636 X-65. Y10.
N1638 Z9.
N1640 G1 Z-2. F190.9
N1642 X-55. F381.8
N1644 G2 X-45. Y0. I0. J-10.
N1646 G3 X0. Y-45. I45. J0.
N1648 X45. Y0. I0. J45.
N1650 X0. Y45. I-45. J0.
N1652 X-45. Y0. I0. J-45.
N1654 G2 X-55. Y-10. I-10. J0.
N1656 G1 X-65.
N1658 G0 Z23.
N1660 X-60. Y10.
N1662 Z9.
N1664 G1 Z-2. F190.9
N1666 X-50. F381.8
N1668 G2 X-40. Y0. I0. J-10.
N1670 G3 X0. Y-40. I40. J0.
N1672 X40. Y0. I0. J40.
N1674 X0. Y40. I-40. J0.
N1676 X-40. Y0. I0. J-40.
N1678 G2 X-50. Y-10. I-10. J0.
N1680 G1 X-60.
N1682 G0 Z23.
N1684 X-55. Y10.
N1686 Z9.
N1688 G1 Z-2. F190.9
N1690 X-45. F381.8
N1692 G2 X-35. Y0. I0. J-10.
N1694 G3 X0. Y-35. I35. J0.
N1696 X35. Y0. I0. J35.
N1698 X0. Y35. I-35. J0.
N1700 X-35. Y0. I0. J-35.
N1702 G2 X-45. Y-10. I-10. J0.
N1704 G1 X-55.
N1706 G0 Z23.
N1708 X-75. Y10.
N1710 Z8.
N1712 G1 Z-3. F190.9
N1714 X-65. F381.8
N1716 G2 X-55. Y0. I0. J-10.
N1718 G3 X0. Y-55. I55. J0.
N1720 X55. Y0. I0. J55.
N1722 X0. Y55. I-55. J0.
N1724 X-55. Y0. I0. J-55.
N1726 G2 X-65. Y-10. I-10. J0.
N1728 G1 X-75.
N1730 G0 Z22.
N1732 X-70. Y10.
N1734 Z8.
N1736 G1 Z-3. F190.9
N1738 X-60. F381.8
N1740 G2 X-50. Y0. I0. J-10.
N1742 G3 X0. Y-50. I50. J0.
N1744 X50. Y0. I0. J50.
N1746 X0. Y50. I-50. J0.
N1748 X-50. Y0. I0. J-50.
N1750 G2 X-60. Y-10. I-10. J0.
N1752 G1 X-70.
N1754 G0 Z22.
N1756 X-65. Y10.
N1758 Z8.
N1760 G1 Z-3. F190.9
N1762 X-55. F381.8
N1764 G2 X-45. Y0. I0. J-10.
N1766 G3 X0. Y-45. I45. J0.
N1768 X45. Y0. I0. J45.
N1770 X0. Y45. I-45. J0.
N1772 X-45. Y0. I0. J-45.
N1774 G2 X-55. Y-10. I-10. J0.
N1776 G1 X-65.
N1778 G0 Z22.
N1780 X-60. Y10.
N1782 Z8.
N1784 G1 Z-3. F190.9
N1786 X-50. F381.8
N1788 G2 X-40. Y0. I0. J-10.
N1790 G3 X0. Y-40. I40. J0.
N1792 X40. Y0. I0. J40.
N1794 X0. Y40. I-40. J0.
N1796 X-40. Y0. I0. J-40.
N1798 G2 X-50. Y-10. I-10. J0.
N1800 G1 X-60.
N1802 G0 Z22.
N1804 X-55. Y10.
N1806 Z8.
N1808 G1 Z-3. F190.9
N1810 X-45. F381.8
N1812 G2 X-35. Y0. I0. J-10.
N1814 G3 X0. Y-35. I35. J0.
N1816 X35. Y0. I0. J35.
N1818 X0. Y35. I-35. J0.
N1820 X-35. Y0. I0. J-35.
N1822 G2 X-45. Y-10. I-10. J0.
N1824 G1 X-55.
N1826 G0 Z22.
N1828 X-75. Y10.
N1830 Z7.
N1832 G1 Z-4. F190.9
N1834 X-65. F381.8
N1836 G2 X-55. Y0. I0. J-10.
N1838 G3 X0. Y-55. I55. J0.
N1840 X55. Y0. I0. J55.
N1842 X0. Y55. I-55. J0.
N1844 X-55. Y0. I0. J-55.
N1846 G2 X-65. Y-10. I-10. J0.
N1848 G1 X-75.
N1850 G0 Z21.
N1852 X-70. Y10.
N1854 Z7.
N1856 G1 Z-4. F190.9
N1858 X-60. F381.8
N1860 G2 X-50. Y0. I0. J-10.
N1862 G3 X0. Y-50. I50. J0.
N1864 X50. Y0. I0. J50.
N1866 X0. Y50. I-50. J0.
N1868 X-50. Y0. I0. J-50.
N1870 G2 X-60. Y-10. I-10. J0.
N1872 G1 X-70.
N1874 G0 Z21.
N1876 X-65. Y10.
N1878 Z7.
N1880 G1 Z-4. F190.9
N1882 X-55. F381.8
N1884 G2 X-45. Y0. I0. J-10.
N1886 G3 X0. Y-45. I45. J0.
N1888 X45. Y0. I0. J45.
N1890 X0. Y45. I-45. J0.
N1892 X-45. Y0. I0. J-45.
N1894 G2 X-55. Y-10. I-10. J0.
N1896 G1 X-65.
N1898 G0 Z21.
N1900 X-60. Y10.
N1902 Z7.
N1904 G1 Z-4. F190.9
N1906 X-50. F381.8
N1908 G2 X-40. Y0. I0. J-10.
N1910 G3 X0. Y-40. I40. J0.
N1912 X40. Y0. I0. J40.
N1914 X0. Y40. I-40. J0.
N1916 X-40. Y0. I0. J-40.
N1918 G2 X-50. Y-10. I-10. J0.
N1920 G1 X-60.
N1922 G0 Z21.
N1924 X-55. Y10.
N1926 Z7.
N1928 G1 Z-4. F190.9
N1930 X-45. F381.8
N1932 G2 X-35. Y0. I0. J-10.
N1934 G3 X0. Y-35. I35. J0.
N1936 X35. Y0. I0. J35.
N1938 X0. Y35. I-35. J0.
N1940 X-35. Y0. I0. J-35.
N1942 G2 X-45. Y-10. I-10. J0.
N1944 G1 X-55.
N1946 G0 Z21.
N1948 X-75. Y10.
N1950 Z6.
N1952 G1 Z-5. F190.9
N1954 X-65. F381.8
N1956 G2 X-55. Y0. I0. J-10.
N1958 G3 X0. Y-55. I55. J0.
N1960 X55. Y0. I0. J55.
N1962 X0. Y55. I-55. J0.
N1964 X-55. Y0. I0. J-55.
N1966 G2 X-65. Y-10. I-10. J0.
N1968 G1 X-75.
N1970 G0 Z20.
N1972 X-70. Y10.
N1974 Z6.
N1976 G1 Z-5. F190.9
N1978 X-60. F381.8
N1980 G2 X-50. Y0. I0. J-10.
N1982 G3 X0. Y-50. I50. J0.
N1984 X50. Y0. I0. J50.
N1986 X0. Y50. I-50. J0.
N1988 X-50. Y0. I0. J-50.
N1990 G2 X-60. Y-10. I-10. J0.
N1992 G1 X-70.
N1994 G0 Z20.
N1996 X-65. Y10.
N1998 Z6.
N2000 G1 Z-5. F190.9
N2002 X-55. F381.8
N2004 G2 X-45. Y0. I0. J-10.
N2006 G3 X0. Y-45. I45. J0.
N2008 X45. Y0. I0. J45.
N2010 X0. Y45. I-45. J0.
N2012 X-45. Y0. I0. J-45.
N2014 G2 X-55. Y-10. I-10. J0.
N2016 G1 X-65.
N2018 G0 Z20.
N2020 X-60. Y10.
N2022 Z6.
N2024 G1 Z-5. F190.9
N2026 X-50. F381.8
N2028 G2 X-40. Y0. I0. J-10.
N2030 G3 X0. Y-40. I40. J0.
N2032 X40. Y0. I0. J40.
N2034 X0. Y40. I-40. J0.
N2036 X-40. Y0. I0. J-40.
N2038 G2 X-50. Y-10. I-10. J0.
N2040 G1 X-60.
N2042 G0 Z20.
N2044 X-55. Y10.
N2046 Z6.
N2048 G1 Z-5. F190.9
N2050 X-45. F381.8
N2052 G2 X-35. Y0. I0. J-10.
N2054 G3 X0. Y-35. I35. J0.
N2056 X35. Y0. I0. J35.
N2058 X0. Y35. I-35. J0.
N2060 X-35. Y0. I0. J-35.
N2062 G2 X-45. Y-10. I-10. J0.
N2064 G1 X-55.
N2066 G0 Z20.
N2068 X-75. Y10.
N2070 Z5.
N2072 G1 Z-6. F190.9
N2074 X-65. F381.8
N2076 G2 X-55. Y0. I0. J-10.
N2078 G3 X0. Y-55. I55. J0.
N2080 X55. Y0. I0. J55.
N2082 X0. Y55. I-55. J0.
N2084 X-55. Y0. I0. J-55.
N2086 G2 X-65. Y-10. I-10. J0.
N2088 G1 X-75.
N2090 G0 Z19.
N2092 X-70. Y10.
N2094 Z5.
N2096 G1 Z-6. F190.9
N2098 X-60. F381.8
N2100 G2 X-50. Y0. I0. J-10.
N2102 G3 X0. Y-50. I50. J0.
N2104 X50. Y0. I0. J50.
N2106 X0. Y50. I-50. J0.
N2108 X-50. Y0. I0. J-50.
N2110 G2 X-60. Y-10. I-10. J0.
N2112 G1 X-70.
N2114 G0 Z19.
N2116 X-65. Y10.
N2118 Z5.
N2120 G1 Z-6. F190.9
N2122 X-55. F381.8
N2124 G2 X-45. Y0. I0. J-10.
N2126 G3 X0. Y-45. I45. J0.
N2128 X45. Y0. I0. J45.
N2130 X0. Y45. I-45. J0.
N2132 X-45. Y0. I0. J-45.
N2134 G2 X-55. Y-10. I-10. J0.
N2136 G1 X-65.
N2138 G0 Z19.
N2140 X-60. Y10.
N2142 Z5.
N2144 G1 Z-6. F190.9
N2146 X-50. F381.8
N2148 G2 X-40. Y0. I0. J-10.
N2150 G3 X0. Y-40. I40. J0.
N2152 X40. Y0. I0. J40.
N2154 X0. Y40. I-40. J0.
N2156 X-40. Y0. I0. J-40.
N2158 G2 X-50. Y-10. I-10. J0.
N2160 G1 X-60.
N2162 G0 Z19.
N2164 X-55. Y10.
N2166 Z5.
N2168 G1 Z-6. F190.9
N2170 X-45. F381.8
N2172 G2 X-35. Y0. I0. J-10.
N2174 G3 X0. Y-35. I35. J0.
N2176 X35. Y0. I0. J35.
N2178 X0. Y35. I-35. J0.
N2180 X-35. Y0. I0. J-35.
N2182 G2 X-45. Y-10. I-10. J0.
N2184 G1 X-55.
N2186 G0 Z19.
N2188 X-75. Y10.
N2190 Z4.
N2192 G1 Z-7. F190.9
N2194 X-65. F381.8
N2196 G2 X-55. Y0. I0. J-10.
N2198 G3 X0. Y-55. I55. J0.
N2200 X55. Y0. I0. J55.
N2202 X0. Y55. I-55. J0.
N2204 X-55. Y0. I0. J-55.
N2206 G2 X-65. Y-10. I-10. J0.
N2208 G1 X-75.
N2210 G0 Z18.
N2212 X-70. Y10.
N2214 Z4.
N2216 G1 Z-7. F190.9
N2218 X-60. F381.8
N2220 G2 X-50. Y0. I0. J-10.
N2222 G3 X0. Y-50. I50. J0.
N2224 X50. Y0. I0. J50.
N2226 X0. Y50. I-50. J0.
N2228 X-50. Y0. I0. J-50.
N2230 G2 X-60. Y-10. I-10. J0.
N2232 G1 X-70.
N2234 G0 Z18.
N2236 X-65. Y10.
N2238 Z4.
N2240 G1 Z-7. F190.9
N2242 X-55. F381.8
N2244 G2 X-45. Y0. I0. J-10.
N2246 G3 X0. Y-45. I45. J0.
N2248 X45. Y0. I0. J45.
N2250 X0. Y45. I-45. J0.
N2252 X-45. Y0. I0. J-45.
N2254 G2 X-55. Y-10. I-10. J0.
N2256 G1 X-65.
N2258 G0 Z18.
N2260 X-60. Y10.
N2262 Z4.
N2264 G1 Z-7. F190.9
N2266 X-50. F381.8
N2268 G2 X-40. Y0. I0. J-10.
N2270 G3 X0. Y-40. I40. J0.
N2272 X40. Y0. I0. J40.
N2274 X0. Y40. I-40. J0.
N2276 X-40. Y0. I0. J-40.
N2278 G2 X-50. Y-10. I-10. J0.
N2280 G1 X-60.
N2282 G0 Z18.
N2284 X-55. Y10.
N2286 Z4.
N2288 G1 Z-7. F190.9
N2290 X-45. F381.8
N2292 G2 X-35. Y0. I0. J-10.
N2294 G3 X0. Y-35. I35. J0.
N2296 X35. Y0. I0. J35.
N2298 X0. Y35. I-35. J0.
N2300 X-35. Y0. I0. J-35.
N2302 G2 X-45. Y-10. I-10. J0.
N2304 G1 X-55.
N2306 G0 Z18.
N2308 X-75. Y10.
N2310 Z3.
N2312 G1 Z-8. F190.9
N2314 X-65. F381.8
N2316 G2 X-55. Y0. I0. J-10.
N2318 G3 X0. Y-55. I55. J0.
N2320 X55. Y0. I0. J55.
N2322 X0. Y55. I-55. J0.
N2324 X-55. Y0. I0. J-55.
N2326 G2 X-65. Y-10. I-10. J0.
N2328 G1 X-75.
N2330 G0 Z17.
N2332 X-70. Y10.
N2334 Z3.
N2336 G1 Z-8. F190.9
N2338 X-60. F381.8
N2340 G2 X-50. Y0. I0. J-10.
N2342 G3 X0. Y-50. I50. J0.
N2344 X50. Y0. I0. J50.
N2346 X0. Y50. I-50. J0.
N2348 X-50. Y0. I0. J-50.
N2350 G2 X-60. Y-10. I-10. J0.
N2352 G1 X-70.
N2354 G0 Z17.
N2356 X-65. Y10.
N2358 Z3.
N2360 G1 Z-8. F190.9
N2362 X-55. F381.8
N2364 G2 X-45. Y0. I0. J-10.
N2366 G3 X0. Y-45. I45. J0.
N2368 X45. Y0. I0. J45.
N2370 X0. Y45. I-45. J0.
N2372 X-45. Y0. I0. J-45.
N2374 G2 X-55. Y-10. I-10. J0.
N2376 G1 X-65.
N2378 G0 Z17.
N2380 X-60. Y10.
N2382 Z3.
N2384 G1 Z-8. F190.9
N2386 X-50. F381.8
N2388 G2 X-40. Y0. I0. J-10.
N2390 G3 X0. Y-40. I40. J0.
N2392 X40. Y0. I0. J40.
N2394 X0. Y40. I-40. J0.
N2396 X-40. Y0. I0. J-40.
N2398 G2 X-50. Y-10. I-10. J0.
N2400 G1 X-60.
N2402 G0 Z17.
N2404 X-55. Y10.
N2406 Z3.
N2408 G1 Z-8. F190.9
N2410 X-45. F381.8
N2412 G2 X-35. Y0. I0. J-10.
N2414 G3 X0. Y-35. I35. J0.
N2416 X35. Y0. I0. J35.
N2418 X0. Y35. I-35. J0.
N2420 X-35. Y0. I0. J-35.
N2422 G2 X-45. Y-10. I-10. J0.
N2424 G1 X-55.
N2426 G0 Z17.
N2428 X-75. Y10.
N2430 Z2.
N2432 G1 Z-9. F190.9
N2434 X-65. F381.8
N2436 G2 X-55. Y0. I0. J-10.
N2438 G3 X0. Y-55. I55. J0.
N2440 X55. Y0. I0. J55.
N2442 X0. Y55. I-55. J0.
N2444 X-55. Y0. I0. J-55.
N2446 G2 X-65. Y-10. I-10. J0.
N2448 G1 X-75.
N2450 G0 Z16.
N2452 X-70. Y10.
N2454 Z2.
N2456 G1 Z-9. F190.9
N2458 X-60. F381.8
N2460 G2 X-50. Y0. I0. J-10.
N2462 G3 X0. Y-50. I50. J0.
N2464 X50. Y0. I0. J50.
N2466 X0. Y50. I-50. J0.
N2468 X-50. Y0. I0. J-50.
N2470 G2 X-60. Y-10. I-10. J0.
N2472 G1 X-70.
N2474 G0 Z16.
N2476 X-65. Y10.
N2478 Z2.
N2480 G1 Z-9. F190.9
N2482 X-55. F381.8
N2484 G2 X-45. Y0. I0. J-10.
N2486 G3 X0. Y-45. I45. J0.
N2488 X45. Y0. I0. J45.
N2490 X0. Y45. I-45. J0.
N2492 X-45. Y0. I0. J-45.
N2494 G2 X-55. Y-10. I-10. J0.
N2496 G1 X-65.
N2498 G0 Z16.
N2500 X-60. Y10.
N2502 Z2.
N2504 G1 Z-9. F190.9
N2506 X-50. F381.8
N2508 G2 X-40. Y0. I0. J-10.
N2510 G3 X0. Y-40. I40. J0.
N2512 X40. Y0. I0. J40.
N2514 X0. Y40. I-40. J0.
N2516 X-40. Y0. I0. J-40.
N2518 G2 X-50. Y-10. I-10. J0.
N2520 G1 X-60.
N2522 G0 Z16.
N2524 X-55. Y10.
N2526 Z2.
N2528 G1 Z-9. F190.9
N2530 X-45. F381.8
N2532 G2 X-35. Y0. I0. J-10.
N2534 G3 X0. Y-35. I35. J0.
N2536 X35. Y0. I0. J35.
N2538 X0. Y35. I-35. J0.
N2540 X-35. Y0. I0. J-35.
N2542 G2 X-45. Y-10. I-10. J0.
N2544 G1 X-55.
N2546 G0 Z16.
N2548 X-75. Y10.
N2550 Z1.
N2552 G1 Z-10. F190.9
N2554 X-65. F381.8
N2556 G2 X-55. Y0. I0. J-10.
N2558 G3 X0. Y-55. I55. J0.
N2560 X55. Y0. I0. J55.
N2562 X0. Y55. I-55. J0.
N2564 X-55. Y0. I0. J-55.
N2566 G2 X-65. Y-10. I-10. J0.
N2568 G1 X-75.
N2570 G0 Z15.
N2572 X-70. Y10.
N2574 Z1.
N2576 G1 Z-10. F190.9
N2578 X-60. F381.8
N2580 G2 X-50. Y0. I0. J-10.
N2582 G3 X0. Y-50. I50. J0.
N2584 X50. Y0. I0. J50.
N2586 X0. Y50. I-50. J0.
N2588 X-50. Y0. I0. J-50.
N2590 G2 X-60. Y-10. I-10. J0.
N2592 G1 X-70.
N2594 G0 Z15.
N2596 X-65. Y10.
N2598 Z1.
N2600 G1 Z-10. F190.9
N2602 X-55. F381.8
N2604 G2 X-45. Y0. I0. J-10.
N2606 G3 X0. Y-45. I45. J0.
N2608 X45. Y0. I0. J45.
N2610 X0. Y45. I-45. J0.
N2612 X-45. Y0. I0. J-45.
N2614 G2 X-55. Y-10. I-10. J0.
N2616 G1 X-65.
N2618 G0 Z15.
N2620 X-60. Y10.
N2622 Z1.
N2624 G1 Z-10. F190.9
N2626 X-50. F381.8
N2628 G2 X-40. Y0. I0. J-10.
N2630 G3 X0. Y-40. I40. J0.
N2632 X40. Y0. I0. J40.
N2634 X0. Y40. I-40. J0.
N2636 X-40. Y0. I0. J-40.
N2638 G2 X-50. Y-10. I-10. J0.
N2640 G1 X-60.
N2642 G0 Z15.
N2644 X-55. Y10.
N2646 Z1.
N2648 G1 Z-10. F190.9
N2650 X-45. F381.8
N2652 G2 X-35. Y0. I0. J-10.
N2654 G3 X0. Y-35. I35. J0.
N2656 X35. Y0. I0. J35.
N2658 X0. Y35. I-35. J0.
N2660 X-35. Y0. I0. J-35.
N2662 G2 X-45. Y-10. I-10. J0.
N2664 G1 X-55.
N2666 G0 Z15.
N2668 X-75. Y10.
N2670 Z0.
N2672 G1 Z-11. F190.9
N2674 X-65. F381.8
N2676 G2 X-55. Y0. I0. J-10.
N2678 G3 X0. Y-55. I55. J0.
N2680 X55. Y0. I0. J55.
N2682 X0. Y55. I-55. J0.
N2684 X-55. Y0. I0. J-55.
N2686 G2 X-65. Y-10. I-10. J0.
N2688 G1 X-75.
N2690 G0 Z14.
N2692 X-70. Y10.
N2694 Z0.
N2696 G1 Z-11. F190.9
N2698 X-60. F381.8
N2700 G2 X-50. Y0. I0. J-10.
N2702 G3 X0. Y-50. I50. J0.
N2704 X50. Y0. I0. J50.
N2706 X0. Y50. I-50. J0.
N2708 X-50. Y0. I0. J-50.
N2710 G2 X-60. Y-10. I-10. J0.
N2712 G1 X-70.
N2714 G0 Z14.
N2716 X-65. Y10.
N2718 Z0.
N2720 G1 Z-11. F190.9
N2722 X-55. F381.8
N2724 G2 X-45. Y0. I0. J-10.
N2726 G3 X0. Y-45. I45. J0.
N2728 X45. Y0. I0. J45.
N2730 X0. Y45. I-45. J0.
N2732 X-45. Y0. I0. J-45.
N2734 G2 X-55. Y-10. I-10. J0.
N2736 G1 X-65.
N2738 G0 Z14.
N2740 X-60. Y10.
N2742 Z0.
N2744 G1 Z-11. F190.9
N2746 X-50. F381.8
N2748 G2 X-40. Y0. I0. J-10.
N2750 G3 X0. Y-40. I40. J0.
N2752 X40. Y0. I0. J40.
N2754 X0. Y40. I-40. J0.
N2756 X-40. Y0. I0. J-40.
N2758 G2 X-50. Y-10. I-10. J0.
N2760 G1 X-60.
N2762 G0 Z14.
N2764 X-55. Y10.
N2766 Z0.
N2768 G1 Z-11. F190.9
N2770 X-45. F381.8
N2772 G2 X-35. Y0. I0. J-10.
N2774 G3 X0. Y-35. I35. J0.
N2776 X35. Y0. I0. J35.
N2778 X0. Y35. I-35. J0.
N2780 X-35. Y0. I0. J-35.
N2782 G2 X-45. Y-10. I-10. J0.
N2784 G1 X-55.
N2786 G0 Z14.
N2788 X-75. Y10.
N2790 Z-1.
N2792 G1 Z-12. F190.9
N2794 X-65. F381.8
N2796 G2 X-55. Y0. I0. J-10.
N2798 G3 X0. Y-55. I55. J0.
N2800 X55. Y0. I0. J55.
N2802 X0. Y55. I-55. J0.
N2804 X-55. Y0. I0. J-55.
N2806 G2 X-65. Y-10. I-10. J0.
N2808 G1 X-75.
N2810 G0 Z13.
N2812 X-70. Y10.
N2814 Z-1.
N2816 G1 Z-12. F190.9
N2818 X-60. F381.8
N2820 G2 X-50. Y0. I0. J-10.
N2822 G3 X0. Y-50. I50. J0.
N2824 X50. Y0. I0. J50.
N2826 X0. Y50. I-50. J0.
N2828 X-50. Y0. I0. J-50.
N2830 G2 X-60. Y-10. I-10. J0.
N2832 G1 X-70.
N2834 G0 Z13.
N2836 X-65. Y10.
N2838 Z-1.
N2840 G1 Z-12. F190.9
N2842 X-55. F381.8
N2844 G2 X-45. Y0. I0. J-10.
N2846 G3 X0. Y-45. I45. J0.
N2848 X45. Y0. I0. J45.
N2850 X0. Y45. I-45. J0.
N2852 X-45. Y0. I0. J-45.
N2854 G2 X-55. Y-10. I-10. J0.
N2856 G1 X-65.
N2858 G0 Z13.
N2860 X-60. Y10.
N2862 Z-1.
N2864 G1 Z-12. F190.9
N2866 X-50. F381.8
N2868 G2 X-40. Y0. I0. J-10.
N2870 G3 X0. Y-40. I40. J0.
N2872 X40. Y0. I0. J40.
N2874 X0. Y40. I-40. J0.
N2876 X-40. Y0. I0. J-40.
N2878 G2 X-50. Y-10. I-10. J0.
N2880 G1 X-60.
N2882 G0 Z13.
N2884 X-55. Y10.
N2886 Z-1.
N2888 G1 Z-12. F190.9
N2890 X-45. F381.8
N2892 G2 X-35. Y0. I0. J-10.
N2894 G3 X0. Y-35. I35. J0.
N2896 X35. Y0. I0. J35.
N2898 X0. Y35. I-35. J0.
N2900 X-35. Y0. I0. J-35.
N2902 G2 X-45. Y-10. I-10. J0.
N2904 G1 X-55.
N2906 G0 Z13.
N2908 X-75. Y10.
N2910 Z-2.
N2912 G1 Z-13. F190.9
N2914 X-65. F381.8
N2916 G2 X-55. Y0. I0. J-10.
N2918 G3 X0. Y-55. I55. J0.
N2920 X55. Y0. I0. J55.
N2922 X0. Y55. I-55. J0.
N2924 X-55. Y0. I0. J-55.
N2926 G2 X-65. Y-10. I-10. J0.
N2928 G1 X-75.
N2930 G0 Z12.
N2932 X-70. Y10.
N2934 Z-2.
N2936 G1 Z-13. F190.9
N2938 X-60. F381.8
N2940 G2 X-50. Y0. I0. J-10.
N2942 G3 X0. Y-50. I50. J0.
N2944 X50. Y0. I0. J50.
N2946 X0. Y50. I-50. J0.
N2948 X-50. Y0. I0. J-50.
N2950 G2 X-60. Y-10. I-10. J0.
N2952 G1 X-70.
N2954 G0 Z12.
N2956 X-65. Y10.
N2958 Z-2.
N2960 G1 Z-13. F190.9
N2962 X-55. F381.8
N2964 G2 X-45. Y0. I0. J-10.
N2966 G3 X0. Y-45. I45. J0.
N2968 X45. Y0. I0. J45.
N2970 X0. Y45. I-45. J0.
N2972 X-45. Y0. I0. J-45.
N2974 G2 X-55. Y-10. I-10. J0.
N2976 G1 X-65.
N2978 G0 Z12.
N2980 X-60. Y10.
N2982 Z-2.
N2984 G1 Z-13. F190.9
N2986 X-50. F381.8
N2988 G2 X-40. Y0. I0. J-10.
N2990 G3 X0. Y-40. I40. J0.
N2992 X40. Y0. I0. J40.
N2994 X0. Y40. I-40. J0.
N2996 X-40. Y0. I0. J-40.
N2998 G2 X-50. Y-10. I-10. J0.
N3000 G1 X-60.
N3002 G0 Z12.
N3004 X-55. Y10.
N3006 Z-2.
N3008 G1 Z-13. F190.9
N3010 X-45. F381.8
N3012 G2 X-35. Y0. I0. J-10.
N3014 G3 X0. Y-35. I35. J0.
N3016 X35. Y0. I0. J35.
N3018 X0. Y35. I-35. J0.
N3020 X-35. Y0. I0. J-35.
N3022 G2 X-45. Y-10. I-10. J0.
N3024 G1 X-55.
N3026 G0 Z12.
N3028 X-75. Y10.
N3030 Z-3.
N3032 G1 Z-14. F190.9
N3034 X-65. F381.8
N3036 G2 X-55. Y0. I0. J-10.
N3038 G3 X0. Y-55. I55. J0.
N3040 X55. Y0. I0. J55.
N3042 X0. Y55. I-55. J0.
N3044 X-55. Y0. I0. J-55.
N3046 G2 X-65. Y-10. I-10. J0.
N3048 G1 X-75.
N3050 G0 Z11.
N3052 X-70. Y10.
N3054 Z-3.
N3056 G1 Z-14. F190.9
N3058 X-60. F381.8
N3060 G2 X-50. Y0. I0. J-10.
N3062 G3 X0. Y-50. I50. J0.
N3064 X50. Y0. I0. J50.
N3066 X0. Y50. I-50. J0.
N3068 X-50. Y0. I0. J-50.
N3070 G2 X-60. Y-10. I-10. J0.
N3072 G1 X-70.
N3074 G0 Z11.
N3076 X-65. Y10.
N3078 Z-3.
N3080 G1 Z-14. F190.9
N3082 X-55. F381.8
N3084 G2 X-45. Y0. I0. J-10.
N3086 G3 X0. Y-45. I45. J0.
N3088 X45. Y0. I0. J45.
N3090 X0. Y45. I-45. J0.
N3092 X-45. Y0. I0. J-45.
N3094 G2 X-55. Y-10. I-10. J0.
N3096 G1 X-65.
N3098 G0 Z11.
N3100 X-60. Y10.
N3102 Z-3.
N3104 G1 Z-14. F190.9
N3106 X-50. F381.8
N3108 G2 X-40. Y0. I0. J-10.
N3110 G3 X0. Y-40. I40. J0.
N3112 X40. Y0. I0. J40.
N3114 X0. Y40. I-40. J0.
N3116 X-40. Y0. I0. J-40.
N3118 G2 X-50. Y-10. I-10. J0.
N3120 G1 X-60.
N3122 G0 Z11.
N3124 X-55. Y10.
N3126 Z-3.
N3128 G1 Z-14. F190.9
N3130 X-45. F381.8
N3132 G2 X-35. Y0. I0. J-10.
N3134 G3 X0. Y-35. I35. J0.
N3136 X35. Y0. I0. J35.
N3138 X0. Y35. I-35. J0.
N3140 X-35. Y0. I0. J-35.
N3142 G2 X-45. Y-10. I-10. J0.
N3144 G1 X-55.
N3146 G0 Z11.
N3148 X-75. Y10.
N3150 Z-4.
N3152 G1 Z-15. F190.9
N3154 X-65. F381.8
N3156 G2 X-55. Y0. I0. J-10.
N3158 G3 X0. Y-55. I55. J0.
N3160 X55. Y0. I0. J55.
N3162 X0. Y55. I-55. J0.
N3164 X-55. Y0. I0. J-55.
N3166 G2 X-65. Y-10. I-10. J0.
N3168 G1 X-75.
N3170 G0 Z10.
N3172 X-70. Y10.
N3174 Z-4.
N3176 G1 Z-15. F190.9
N3178 X-60. F381.8
N3180 G2 X-50. Y0. I0. J-10.
N3182 G3 X0. Y-50. I50. J0.
N3184 X50. Y0. I0. J50.
N3186 X0. Y50. I-50. J0.
N3188 X-50. Y0. I0. J-50.
N3190 G2 X-60. Y-10. I-10. J0.
N3192 G1 X-70.
N3194 G0 Z10.
N3196 X-65. Y10.
N3198 Z-4.
N3200 G1 Z-15. F190.9
N3202 X-55. F381.8
N3204 G2 X-45. Y0. I0. J-10.
N3206 G3 X0. Y-45. I45. J0.
N3208 X45. Y0. I0. J45.
N3210 X0. Y45. I-45. J0.
N3212 X-45. Y0. I0. J-45.
N3214 G2 X-55. Y-10. I-10. J0.
N3216 G1 X-65.
N3218 G0 Z10.
N3220 X-60. Y10.
N3222 Z-4.
N3224 G1 Z-15. F190.9
N3226 X-50. F381.8
N3228 G2 X-40. Y0. I0. J-10.
N3230 G3 X0. Y-40. I40. J0.
N3232 X40. Y0. I0. J40.
N3234 X0. Y40. I-40. J0.
N3236 X-40. Y0. I0. J-40.
N3238 G2 X-50. Y-10. I-10. J0.
N3240 G1 X-60.
N3242 G0 Z10.
N3244 X-55. Y10.
N3246 Z-4.
N3248 G1 Z-15. F190.9
N3250 X-45. F381.8
N3252 G2 X-35. Y0. I0. J-10.
N3254 G3 X0. Y-35. I35. J0.
N3256 X35. Y0. I0. J35.
N3258 X0. Y35. I-35. J0.
N3260 X-35. Y0. I0. J-35.
N3262 G2 X-45. Y-10. I-10. J0.
N3264 G1 X-55.
N3266 G0 Z10.
N3268 X-75. Y10.
N3270 Z-5.
N3272 G1 Z-16. F190.9
N3274 X-65. F381.8
N3276 G2 X-55. Y0. I0. J-10.
N3278 G3 X0. Y-55. I55. J0.
N3280 X55. Y0. I0. J55.
N3282 X0. Y55. I-55. J0.
N3284 X-55. Y0. I0. J-55.
N3286 G2 X-65. Y-10. I-10. J0.
N3288 G1 X-75.
N3290 G0 Z9.
N3292 X-70. Y10.
N3294 Z-5.
N3296 G1 Z-16. F190.9
N3298 X-60. F381.8
N3300 G2 X-50. Y0. I0. J-10.
N3302 G3 X0. Y-50. I50. J0.
N3304 X50. Y0. I0. J50.
N3306 X0. Y50. I-50. J0.
N3308 X-50. Y0. I0. J-50.
N3310 G2 X-60. Y-10. I-10. J0.
N3312 G1 X-70.
N3314 G0 Z9.
N3316 X-65. Y10.
N3318 Z-5.
N3320 G1 Z-16. F190.9
N3322 X-55. F381.8
N3324 G2 X-45. Y0. I0. J-10.
N3326 G3 X0. Y-45. I45. J0.
N3328 X45. Y0. I0. J45.
N3330 X0. Y45. I-45. J0.
N3332 X-45. Y0. I0. J-45.
N3334 G2 X-55. Y-10. I-10. J0.
N3336 G1 X-65.
N3338 G0 Z9.
N3340 X-60. Y10.
N3342 Z-5.
N3344 G1 Z-16. F190.9
N3346 X-50. F381.8
N3348 G2 X-40. Y0. I0. J-10.
N3350 G3 X0. Y-40. I40. J0.
N3352 X40. Y0. I0. J40.
N3354 X0. Y40. I-40. J0.
N3356 X-40. Y0. I0. J-40.
N3358 G2 X-50. Y-10. I-10. J0.
N3360 G1 X-60.
N3362 G0 Z9.
N3364 X-55. Y10.
N3366 Z-5.
N3368 G1 Z-16. F190.9
N3370 X-45. F381.8
N3372 G2 X-35. Y0. I0. J-10.
N3374 G3 X0. Y-35. I35. J0.
N3376 X35. Y0. I0. J35.
N3378 X0. Y35. I-35. J0.
N3380 X-35. Y0. I0. J-35.
N3382 G2 X-45. Y-10. I-10. J0.
N3384 G1 X-55.
N3386 G0 Z9.
N3388 X-75. Y10.
N3390 Z-6.
N3392 G1 Z-17. F190.9
N3394 X-65. F381.8
N3396 G2 X-55. Y0. I0. J-10.
N3398 G3 X0. Y-55. I55. J0.
N3400 X55. Y0. I0. J55.
N3402 X0. Y55. I-55. J0.
N3404 X-55. Y0. I0. J-55.
N3406 G2 X-65. Y-10. I-10. J0.
N3408 G1 X-75.
N3410 G0 Z8.
N3412 X-70. Y10.
N3414 Z-6.
N3416 G1 Z-17. F190.9
N3418 X-60. F381.8
N3420 G2 X-50. Y0. I0. J-10.
N3422 G3 X0. Y-50. I50. J0.
N3424 X50. Y0. I0. J50.
N3426 X0. Y50. I-50. J0.
N3428 X-50. Y0. I0. J-50.
N3430 G2 X-60. Y-10. I-10. J0.
N3432 G1 X-70.
N3434 G0 Z8.
N3436 X-65. Y10.
N3438 Z-6.
N3440 G1 Z-17. F190.9
N3442 X-55. F381.8
N3444 G2 X-45. Y0. I0. J-10.
N3446 G3 X0. Y-45. I45. J0.
N3448 X45. Y0. I0. J45.
N3450 X0. Y45. I-45. J0.
N3452 X-45. Y0. I0. J-45.
N3454 G2 X-55. Y-10. I-10. J0.
N3456 G1 X-65.
N3458 G0 Z8.
N3460 X-60. Y10.
N3462 Z-6.
N3464 G1 Z-17. F190.9
N3466 X-50. F381.8
N3468 G2 X-40. Y0. I0. J-10.
N3470 G3 X0. Y-40. I40. J0.
N3472 X40. Y0. I0. J40.
N3474 X0. Y40. I-40. J0.
N3476 X-40. Y0. I0. J-40.
N3478 G2 X-50. Y-10. I-10. J0.
N3480 G1 X-60.
N3482 G0 Z8.
N3484 X-55. Y10.
N3486 Z-6.
N3488 G1 Z-17. F190.9
N3490 X-45. F381.8
N3492 G2 X-35. Y0. I0. J-10.
N3494 G3 X0. Y-35. I35. J0.
N3496 X35. Y0. I0. J35.
N3498 X0. Y35. I-35. J0.
N3500 X-35. Y0. I0. J-35.
N3502 G2 X-45. Y-10. I-10. J0.
N3504 G1 X-55.
N3506 G0 Z8.
N3508 X-75. Y10.
N3510 Z-7.
N3512 G1 Z-18. F190.9
N3514 X-65. F381.8
N3516 G2 X-55. Y0. I0. J-10.
N3518 G3 X0. Y-55. I55. J0.
N3520 X55. Y0. I0. J55.
N3522 X0. Y55. I-55. J0.
N3524 X-55. Y0. I0. J-55.
N3526 G2 X-65. Y-10. I-10. J0.
N3528 G1 X-75.
N3530 G0 Z7.
N3532 X-70. Y10.
N3534 Z-7.
N3536 G1 Z-18. F190.9
N3538 X-60. F381.8
N3540 G2 X-50. Y0. I0. J-10.
N3542 G3 X0. Y-50. I50. J0.
N3544 X50. Y0. I0. J50.
N3546 X0. Y50. I-50. J0.
N3548 X-50. Y0. I0. J-50.
N3550 G2 X-60. Y-10. I-10. J0.
N3552 G1 X-70.
N3554 G0 Z7.
N3556 X-65. Y10.
N3558 Z-7.
N3560 G1 Z-18. F190.9
N3562 X-55. F381.8
N3564 G2 X-45. Y0. I0. J-10.
N3566 G3 X0. Y-45. I45. J0.
N3568 X45. Y0. I0. J45.
N3570 X0. Y45. I-45. J0.
N3572 X-45. Y0. I0. J-45.
N3574 G2 X-55. Y-10. I-10. J0.
N3576 G1 X-65.
N3578 G0 Z7.
N3580 X-60. Y10.
N3582 Z-7.
N3584 G1 Z-18. F190.9
N3586 X-50. F381.8
N3588 G2 X-40. Y0. I0. J-10.
N3590 G3 X0. Y-40. I40. J0.
N3592 X40. Y0. I0. J40.
N3594 X0. Y40. I-40. J0.
N3596 X-40. Y0. I0. J-40.
N3598 G2 X-50. Y-10. I-10. J0.
N3600 G1 X-60.
N3602 G0 Z7.
N3604 X-55. Y10.
N3606 Z-7.
N3608 G1 Z-18. F190.9
N3610 X-45. F381.8
N3612 G2 X-35. Y0. I0. J-10.
N3614 G3 X0. Y-35. I35. J0.
N3616 X35. Y0. I0. J35.
N3618 X0. Y35. I-35. J0.
N3620 X-35. Y0. I0. J-35.
N3622 G2 X-45. Y-10. I-10. J0.
N3624 G1 X-55.
N3626 G0 Z7.
N3628 X-75. Y10.
N3630 Z-8.
N3632 G1 Z-19. F190.9
N3634 X-65. F381.8
N3636 G2 X-55. Y0. I0. J-10.
N3638 G3 X0. Y-55. I55. J0.
N3640 X55. Y0. I0. J55.
N3642 X0. Y55. I-55. J0.
N3644 X-55. Y0. I0. J-55.
N3646 G2 X-65. Y-10. I-10. J0.
N3648 G1 X-75.
N3650 G0 Z6.
N3652 X-70. Y10.
N3654 Z-8.
N3656 G1 Z-19. F190.9
N3658 X-60. F381.8
N3660 G2 X-50. Y0. I0. J-10.
N3662 G3 X0. Y-50. I50. J0.
N3664 X50. Y0. I0. J50.
N3666 X0. Y50. I-50. J0.
N3668 X-50. Y0. I0. J-50.
N3670 G2 X-60. Y-10. I-10. J0.
N3672 G1 X-70.
N3674 G0 Z6.
N3676 X-65. Y10.
N3678 Z-8.
N3680 G1 Z-19. F190.9
N3682 X-55. F381.8
N3684 G2 X-45. Y0. I0. J-10.
N3686 G3 X0. Y-45. I45. J0.
N3688 X45. Y0. I0. J45.
N3690 X0. Y45. I-45. J0.
N3692 X-45. Y0. I0. J-45.
N3694 G2 X-55. Y-10. I-10. J0.
N3696 G1 X-65.
N3698 G0 Z6.
N3700 X-60. Y10.
N3702 Z-8.
N3704 G1 Z-19. F190.9
N3706 X-50. F381.8
N3708 G2 X-40. Y0. I0. J-10.
N3710 G3 X0. Y-40. I40. J0.
N3712 X40. Y0. I0. J40.
N3714 X0. Y40. I-40. J0.
N3716 X-40. Y0. I0. J-40.
N3718 G2 X-50. Y-10. I-10. J0.
N3720 G1 X-60.
N3722 G0 Z6.
N3724 X-55. Y10.
N3726 Z-8.
N3728 G1 Z-19. F190.9
N3730 X-45. F381.8
N3732 G2 X-35. Y0. I0. J-10.
N3734 G3 X0. Y-35. I35. J0.
N3736 X35. Y0. I0. J35.
N3738 X0. Y35. I-35. J0.
N3740 X-35. Y0. I0. J-35.
N3742 G2 X-45. Y-10. I-10. J0.
N3744 G1 X-55.
N3746 G0 Z6.
N3748 X-75. Y10.
N3750 Z-9.
N3752 G1 Z-20. F190.9
N3754 X-65. F381.8
N3756 G2 X-55. Y0. I0. J-10.
N3758 G3 X0. Y-55. I55. J0.
N3760 X55. Y0. I0. J55.
N3762 X0. Y55. I-55. J0.
N3764 X-55. Y0. I0. J-55.
N3766 G2 X-65. Y-10. I-10. J0.
N3768 G1 X-75.
N3770 G0 Z5.
N3772 X-70. Y10.
N3774 Z-9.
N3776 G1 Z-20. F190.9
N3778 X-60. F381.8
N3780 G2 X-50. Y0. I0. J-10.
N3782 G3 X0. Y-50. I50. J0.
N3784 X50. Y0. I0. J50.
N3786 X0. Y50. I-50. J0.
N3788 X-50. Y0. I0. J-50.
N3790 G2 X-60. Y-10. I-10. J0.
N3792 G1 X-70.
N3794 G0 Z5.
N3796 X-65. Y10.
N3798 Z-9.
N3800 G1 Z-20. F190.9
N3802 X-55. F381.8
N3804 G2 X-45. Y0. I0. J-10.
N3806 G3 X0. Y-45. I45. J0.
N3808 X45. Y0. I0. J45.
N3810 X0. Y45. I-45. J0.
N3812 X-45. Y0. I0. J-45.
N3814 G2 X-55. Y-10. I-10. J0.
N3816 G1 X-65.
N3818 G0 Z5.
N3820 X-60. Y10.
N3822 Z-9.
N3824 G1 Z-20. F190.9
N3826 X-50. F381.8
N3828 G2 X-40. Y0. I0. J-10.
N3830 G3 X0. Y-40. I40. J0.
N3832 X40. Y0. I0. J40.
N3834 X0. Y40. I-40. J0.
N3836 X-40. Y0. I0. J-40.
N3838 G2 X-50. Y-10. I-10. J0.
N3840 G1 X-60.
N3842 G0 Z5.
N3844 X-55. Y10.
N3846 Z-9.
N3848 G1 Z-20. F190.9
N3850 X-45. F381.8
N3852 G2 X-35. Y0. I0. J-10.
N3854 G3 X0. Y-35. I35. J0.
N3856 X35. Y0. I0. J35.
N3858 X0. Y35. I-35. J0.
N3860 X-35. Y0. I0. J-35.
N3862 G2 X-45. Y-10. I-10. J0.
N3864 G1 X-55.
N3866 G0 Z5.
N3868 X-75. Y10.
N3870 Z-10.
N3872 G1 Z-21. F190.9
N3874 X-65. F381.8
N3876 G2 X-55. Y0. I0. J-10.
N3878 G3 X0. Y-55. I55. J0.
N3880 X55. Y0. I0. J55.
N3882 X0. Y55. I-55. J0.
N3884 X-55. Y0. I0. J-55.
N3886 G2 X-65. Y-10. I-10. J0.
N3888 G1 X-75.
N3890 G0 Z4.
N3892 X-70. Y10.
N3894 Z-10.
N3896 G1 Z-21. F190.9
N3898 X-60. F381.8
N3900 G2 X-50. Y0. I0. J-10.
N3902 G3 X0. Y-50. I50. J0.
N3904 X50. Y0. I0. J50.
N3906 X0. Y50. I-50. J0.
N3908 X-50. Y0. I0. J-50.
N3910 G2 X-60. Y-10. I-10. J0.
N3912 G1 X-70.
N3914 G0 Z4.
N3916 X-65. Y10.
N3918 Z-10.
N3920 G1 Z-21. F190.9
N3922 X-55. F381.8
N3924 G2 X-45. Y0. I0. J-10.
N3926 G3 X0. Y-45. I45. J0.
N3928 X45. Y0. I0. J45.
N3930 X0. Y45. I-45. J0.
N3932 X-45. Y0. I0. J-45.
N3934 G2 X-55. Y-10. I-10. J0.
N3936 G1 X-65.
N3938 G0 Z4.
N3940 X-60. Y10.
N3942 Z-10.
N3944 G1 Z-21. F190.9
N3946 X-50. F381.8
N3948 G2 X-40. Y0. I0. J-10.
N3950 G3 X0. Y-40. I40. J0.
N3952 X40. Y0. I0. J40.
N3954 X0. Y40. I-40. J0.
N3956 X-40. Y0. I0. J-40.
N3958 G2 X-50. Y-10. I-10. J0.
N3960 G1 X-60.
N3962 G0 Z4.
N3964 X-55. Y10.
N3966 Z-10.
N3968 G1 Z-21. F190.9
N3970 X-45. F381.8
N3972 G2 X-35. Y0. I0. J-10.
N3974 G3 X0. Y-35. I35. J0.
N3976 X35. Y0. I0. J35.
N3978 X0. Y35. I-35. J0.
N3980 X-35. Y0. I0. J-35.
N3982 G2 X-45. Y-10. I-10. J0.
N3984 G1 X-55.
N3986 G0 Z4.
N3988 X-75. Y10.
N3990 Z-11.
N3992 G1 Z-22. F190.9
N3994 X-65. F381.8
N3996 G2 X-55. Y0. I0. J-10.
N3998 G3 X0. Y-55. I55. J0.
N4000 X55. Y0. I0. J55.
N4002 X0. Y55. I-55. J0.
N4004 X-55. Y0. I0. J-55.
N4006 G2 X-65. Y-10. I-10. J0.
N4008 G1 X-75.
N4010 G0 Z3.
N4012 X-70. Y10.
N4014 Z-11.
N4016 G1 Z-22. F190.9
N4018 X-60. F381.8
N4020 G2 X-50. Y0. I0. J-10.
N4022 G3 X0. Y-50. I50. J0.
N4024 X50. Y0. I0. J50.
N4026 X0. Y50. I-50. J0.
N4028 X-50. Y0. I0. J-50.
N4030 G2 X-60. Y-10. I-10. J0.
N4032 G1 X-70.
N4034 G0 Z3.
N4036 X-65. Y10.
N4038 Z-11.
N4040 G1 Z-22. F190.9
N4042 X-55. F381.8
N4044 G2 X-45. Y0. I0. J-10.
N4046 G3 X0. Y-45. I45. J0.
N4048 X45. Y0. I0. J45.
N4050 X0. Y45. I-45. J0.
N4052 X-45. Y0. I0. J-45.
N4054 G2 X-55. Y-10. I-10. J0.
N4056 G1 X-65.
N4058 G0 Z3.
N4060 X-60. Y10.
N4062 Z-11.
N4064 G1 Z-22. F190.9
N4066 X-50. F381.8
N4068 G2 X-40. Y0. I0. J-10.
N4070 G3 X0. Y-40. I40. J0.
N4072 X40. Y0. I0. J40.
N4074 X0. Y40. I-40. J0.
N4076 X-40. Y0. I0. J-40.
N4078 G2 X-50. Y-10. I-10. J0.
N4080 G1 X-60.
N4082 G0 Z3.
N4084 X-55. Y10.
N4086 Z-11.
N4088 G1 Z-22. F190.9
N4090 X-45. F381.8
N4092 G2 X-35. Y0. I0. J-10.
N4094 G3 X0. Y-35. I35. J0.
N4096 X35. Y0. I0. J35.
N4098 X0. Y35. I-35. J0.
N4100 X-35. Y0. I0. J-35.
N4102 G2 X-45. Y-10. I-10. J0.
N4104 G1 X-55.
N4106 G0 Z3.
N4108 X-75. Y10.
N4110 Z-12.
N4112 G1 Z-23. F190.9
N4114 X-65. F381.8
N4116 G2 X-55. Y0. I0. J-10.
N4118 G3 X0. Y-55. I55. J0.
N4120 X55. Y0. I0. J55.
N4122 X0. Y55. I-55. J0.
N4124 X-55. Y0. I0. J-55.
N4126 G2 X-65. Y-10. I-10. J0.
N4128 G1 X-75.
N4130 G0 Z2.
N4132 X-70. Y10.
N4134 Z-12.
N4136 G1 Z-23. F190.9
N4138 X-60. F381.8
N4140 G2 X-50. Y0. I0. J-10.
N4142 G3 X0. Y-50. I50. J0.
N4144 X50. Y0. I0. J50.
N4146 X0. Y50. I-50. J0.
N4148 X-50. Y0. I0. J-50.
N4150 G2 X-60. Y-10. I-10. J0.
N4152 G1 X-70.
N4154 G0 Z2.
N4156 X-65. Y10.
N4158 Z-12.
N4160 G1 Z-23. F190.9
N4162 X-55. F381.8
N4164 G2 X-45. Y0. I0. J-10.
N4166 G3 X0. Y-45. I45. J0.
N4168 X45. Y0. I0. J45.
N4170 X0. Y45. I-45. J0.
N4172 X-45. Y0. I0. J-45.
N4174 G2 X-55. Y-10. I-10. J0.
N4176 G1 X-65.
N4178 G0 Z2.
N4180 X-60. Y10.
N4182 Z-12.
N4184 G1 Z-23. F190.9
N4186 X-50. F381.8
N4188 G2 X-40. Y0. I0. J-10.
N4190 G3 X0. Y-40. I40. J0.
N4192 X40. Y0. I0. J40.
N4194 X0. Y40. I-40. J0.
N4196 X-40. Y0. I0. J-40.
N4198 G2 X-50. Y-10. I-10. J0.
N4200 G1 X-60.
N4202 G0 Z2.
N4204 X-55. Y10.
N4206 Z-12.
N4208 G1 Z-23. F190.9
N4210 X-45. F381.8
N4212 G2 X-35. Y0. I0. J-10.
N4214 G3 X0. Y-35. I35. J0.
N4216 X35. Y0. I0. J35.
N4218 X0. Y35. I-35. J0.
N4220 X-35. Y0. I0. J-35.
N4222 G2 X-45. Y-10. I-10. J0.
N4224 G1 X-55.
N4226 G0 Z2.
N4228 X-75. Y10.
N4230 Z-13.
N4232 G1 Z-24. F190.9
N4234 X-65. F381.8
N4236 G2 X-55. Y0. I0. J-10.
N4238 G3 X0. Y-55. I55. J0.
N4240 X55. Y0. I0. J55.
N4242 X0. Y55. I-55. J0.
N4244 X-55. Y0. I0. J-55.
N4246 G2 X-65. Y-10. I-10. J0.
N4248 G1 X-75.
N4250 G0 Z1.
N4252 X-70. Y10.
N4254 Z-13.
N4256 G1 Z-24. F190.9
N4258 X-60. F381.8
N4260 G2 X-50. Y0. I0. J-10.
N4262 G3 X0. Y-50. I50. J0.
N4264 X50. Y0. I0. J50.
N4266 X0. Y50. I-50. J0.
N4268 X-50. Y0. I0. J-50.
N4270 G2 X-60. Y-10. I-10. J0.
N4272 G1 X-70.
N4274 G0 Z1.
N4276 X-65. Y10.
N4278 Z-13.
N4280 G1 Z-24. F190.9
N4282 X-55. F381.8
N4284 G2 X-45. Y0. I0. J-10.
N4286 G3 X0. Y-45. I45. J0.
N4288 X45. Y0. I0. J45.
N4290 X0. Y45. I-45. J0.
N4292 X-45. Y0. I0. J-45.
N4294 G2 X-55. Y-10. I-10. J0.
N4296 G1 X-65.
N4298 G0 Z1.
N4300 X-60. Y10.
N4302 Z-13.
N4304 G1 Z-24. F190.9
N4306 X-50. F381.8
N4308 G2 X-40. Y0. I0. J-10.
N4310 G3 X0. Y-40. I40. J0.
N4312 X40. Y0. I0. J40.
N4314 X0. Y40. I-40. J0.
N4316 X-40. Y0. I0. J-40.
N4318 G2 X-50. Y-10. I-10. J0.
N4320 G1 X-60.
N4322 G0 Z1.
N4324 X-55. Y10.
N4326 Z-13.
N4328 G1 Z-24. F190.9
N4330 X-45. F381.8
N4332 G2 X-35. Y0. I0. J-10.
N4334 G3 X0. Y-35. I35. J0.
N4336 X35. Y0. I0. J35.
N4338 X0. Y35. I-35. J0.
N4340 X-35. Y0. I0. J-35.
N4342 G2 X-45. Y-10. I-10. J0.
N4344 G1 X-55.
N4346 G0 Z1.
N4348 X-75. Y10.
N4350 Z-14.
N4352 G1 Z-25. F190.9
N4354 X-65. F381.8
N4356 G2 X-55. Y0. I0. J-10.
N4358 G3 X0. Y-55. I55. J0.
N4360 X55. Y0. I0. J55.
N4362 X0. Y55. I-55. J0.
N4364 X-55. Y0. I0. J-55.
N4366 G2 X-65. Y-10. I-10. J0.
N4368 G1 X-75.
N4370 G0 Z0.
N4372 X-70. Y10.
N4374 Z-14.
N4376 G1 Z-25. F190.9
N4378 X-60. F381.8
N4380 G2 X-50. Y0. I0. J-10.
N4382 G3 X0. Y-50. I50. J0.
N4384 X50. Y0. I0. J50.
N4386 X0. Y50. I-50. J0.
N4388 X-50. Y0. I0. J-50.
N4390 G2 X-60. Y-10. I-10. J0.
N4392 G1 X-70.
N4394 G0 Z0.
N4396 X-65. Y10.
N4398 Z-14.
N4400 G1 Z-25. F190.9
N4402 X-55. F381.8
N4404 G2 X-45. Y0. I0. J-10.
N4406 G3 X0. Y-45. I45. J0.
N4408 X45. Y0. I0. J45.
N4410 X0. Y45. I-45. J0.
N4412 X-45. Y0. I0. J-45.
N4414 G2 X-55. Y-10. I-10. J0.
N4416 G1 X-65.
N4418 G0 Z0.
N4420 X-60. Y10.
N4422 Z-14.
N4424 G1 Z-25. F190.9
N4426 X-50. F381.8
N4428 G2 X-40. Y0. I0. J-10.
N4430 G3 X0. Y-40. I40. J0.
N4432 X40. Y0. I0. J40.
N4434 X0. Y40. I-40. J0.
N4436 X-40. Y0. I0. J-40.
N4438 G2 X-50. Y-10. I-10. J0.
N4440 G1 X-60.
N4442 G0 Z0.
N4444 X-55. Y10.
N4446 Z-14.
N4448 G1 Z-25. F190.9
N4450 X-45. F381.8
N4452 G2 X-35. Y0. I0. J-10.
N4454 G3 X0. Y-35. I35. J0.
N4456 X35. Y0. I0. J35.
N4458 X0. Y35. I-35. J0.
N4460 X-35. Y0. I0. J-35.
N4462 G2 X-45. Y-10. I-10. J0.
N4464 G1 X-55.
N4466 G0 Z0.
N4468 X-75. Y10.
N4470 Z-15.
N4472 G1 Z-26. F190.9
N4474 X-65. F381.8
N4476 G2 X-55. Y0. I0. J-10.
N4478 G3 X0. Y-55. I55. J0.
N4480 X55. Y0. I0. J55.
N4482 X0. Y55. I-55. J0.
N4484 X-55. Y0. I0. J-55.
N4486 G2 X-65. Y-10. I-10. J0.
N4488 G1 X-75.
N4490 G0 Z-1.
N4492 X-70. Y10.
N4494 Z-15.
N4496 G1 Z-26. F190.9
N4498 X-60. F381.8
N4500 G2 X-50. Y0. I0. J-10.
N4502 G3 X0. Y-50. I50. J0.
N4504 X50. Y0. I0. J50.
N4506 X0. Y50. I-50. J0.
N4508 X-50. Y0. I0. J-50.
N4510 G2 X-60. Y-10. I-10. J0.
N4512 G1 X-70.
N4514 G0 Z-1.
N4516 X-65. Y10.
N4518 Z-15.
N4520 G1 Z-26. F190.9
N4522 X-55. F381.8
N4524 G2 X-45. Y0. I0. J-10.
N4526 G3 X0. Y-45. I45. J0.
N4528 X45. Y0. I0. J45.
N4530 X0. Y45. I-45. J0.
N4532 X-45. Y0. I0. J-45.
N4534 G2 X-55. Y-10. I-10. J0.
N4536 G1 X-65.
N4538 G0 Z-1.
N4540 X-60. Y10.
N4542 Z-15.
N4544 G1 Z-26. F190.9
N4546 X-50. F381.8
N4548 G2 X-40. Y0. I0. J-10.
N4550 G3 X0. Y-40. I40. J0.
N4552 X40. Y0. I0. J40.
N4554 X0. Y40. I-40. J0.
N4556 X-40. Y0. I0. J-40.
N4558 G2 X-50. Y-10. I-10. J0.
N4560 G1 X-60.
N4562 G0 Z-1.
N4564 X-55. Y10.
N4566 Z-15.
N4568 G1 Z-26. F190.9
N4570 X-45. F381.8
N4572 G2 X-35. Y0. I0. J-10.
N4574 G3 X0. Y-35. I35. J0.
N4576 X35. Y0. I0. J35.
N4578 X0. Y35. I-35. J0.
N4580 X-35. Y0. I0. J-35.
N4582 G2 X-45. Y-10. I-10. J0.
N4584 G1 X-55.
N4586 G0 Z-1.
N4588 X-75. Y10.
N4590 Z-16.
N4592 G1 Z-27. F190.9
N4594 X-65. F381.8
N4596 G2 X-55. Y0. I0. J-10.
N4598 G3 X0. Y-55. I55. J0.
N4600 X55. Y0. I0. J55.
N4602 X0. Y55. I-55. J0.
N4604 X-55. Y0. I0. J-55.
N4606 G2 X-65. Y-10. I-10. J0.
N4608 G1 X-75.
N4610 G0 Z-2.
N4612 X-70. Y10.
N4614 Z-16.
N4616 G1 Z-27. F190.9
N4618 X-60. F381.8
N4620 G2 X-50. Y0. I0. J-10.
N4622 G3 X0. Y-50. I50. J0.
N4624 X50. Y0. I0. J50.
N4626 X0. Y50. I-50. J0.
N4628 X-50. Y0. I0. J-50.
N4630 G2 X-60. Y-10. I-10. J0.
N4632 G1 X-70.
N4634 G0 Z-2.
N4636 X-65. Y10.
N4638 Z-16.
N4640 G1 Z-27. F190.9
N4642 X-55. F381.8
N4644 G2 X-45. Y0. I0. J-10.
N4646 G3 X0. Y-45. I45. J0.
N4648 X45. Y0. I0. J45.
N4650 X0. Y45. I-45. J0.
N4652 X-45. Y0. I0. J-45.
N4654 G2 X-55. Y-10. I-10. J0.
N4656 G1 X-65.
N4658 G0 Z-2.
N4660 X-60. Y10.
N4662 Z-16.
N4664 G1 Z-27. F190.9
N4666 X-50. F381.8
N4668 G2 X-40. Y0. I0. J-10.
N4670 G3 X0. Y-40. I40. J0.
N4672 X40. Y0. I0. J40.
N4674 X0. Y40. I-40. J0.
N4676 X-40. Y0. I0. J-40.
N4678 G2 X-50. Y-10. I-10. J0.
N4680 G1 X-60.
N4682 G0 Z-2.
N4684 X-55. Y10.
N4686 Z-16.
N4688 G1 Z-27. F190.9
N4690 X-45. F381.8
N4692 G2 X-35. Y0. I0. J-10.
N4694 G3 X0. Y-35. I35. J0.
N4696 X35. Y0. I0. J35.
N4698 X0. Y35. I-35. J0.
N4700 X-35. Y0. I0. J-35.
N4702 G2 X-45. Y-10. I-10. J0.
N4704 G1 X-55.
N4706 G0 Z-2.
N4708 X-75. Y10.
N4710 Z-17.
N4712 G1 Z-28. F190.9
N4714 X-65. F381.8
N4716 G2 X-55. Y0. I0. J-10.
N4718 G3 X0. Y-55. I55. J0.
N4720 X55. Y0. I0. J55.
N4722 X0. Y55. I-55. J0.
N4724 X-55. Y0. I0. J-55.
N4726 G2 X-65. Y-10. I-10. J0.
N4728 G1 X-75.
N4730 G0 Z-3.
N4732 X-70. Y10.
N4734 Z-17.
N4736 G1 Z-28. F190.9
N4738 X-60. F381.8
N4740 G2 X-50. Y0. I0. J-10.
N4742 G3 X0. Y-50. I50. J0.
N4744 X50. Y0. I0. J50.
N4746 X0. Y50. I-50. J0.
N4748 X-50. Y0. I0. J-50.
N4750 G2 X-60. Y-10. I-10. J0.
N4752 G1 X-70.
N4754 G0 Z-3.
N4756 X-65. Y10.
N4758 Z-17.
N4760 G1 Z-28. F190.9
N4762 X-55. F381.8
N4764 G2 X-45. Y0. I0. J-10.
N4766 G3 X0. Y-45. I45. J0.
N4768 X45. Y0. I0. J45.
N4770 X0. Y45. I-45. J0.
N4772 X-45. Y0. I0. J-45.
N4774 G2 X-55. Y-10. I-10. J0.
N4776 G1 X-65.
N4778 G0 Z-3.
N4780 X-60. Y10.
N4782 Z-17.
N4784 G1 Z-28. F190.9
N4786 X-50. F381.8
N4788 G2 X-40. Y0. I0. J-10.
N4790 G3 X0. Y-40. I40. J0.
N4792 X40. Y0. I0. J40.
N4794 X0. Y40. I-40. J0.
N4796 X-40. Y0. I0. J-40.
N4798 G2 X-50. Y-10. I-10. J0.
N4800 G1 X-60.
N4802 G0 Z-3.
N4804 X-55. Y10.
N4806 Z-17.
N4808 G1 Z-28. F190.9
N4810 X-45. F381.8
N4812 G2 X-35. Y0. I0. J-10.
N4814 G3 X0. Y-35. I35. J0.
N4816 X35. Y0. I0. J35.
N4818 X0. Y35. I-35. J0.
N4820 X-35. Y0. I0. J-35.
N4822 G2 X-45. Y-10. I-10. J0.
N4824 G1 X-55.
N4826 G0 Z-3.
N4828 X-75. Y10.
N4830 Z-18.
N4832 G1 Z-29. F190.9
N4834 X-65. F381.8
N4836 G2 X-55. Y0. I0. J-10.
N4838 G3 X0. Y-55. I55. J0.
N4840 X55. Y0. I0. J55.
N4842 X0. Y55. I-55. J0.
N4844 X-55. Y0. I0. J-55.
N4846 G2 X-65. Y-10. I-10. J0.
N4848 G1 X-75.
N4850 G0 Z-4.
N4852 X-70. Y10.
N4854 Z-18.
N4856 G1 Z-29. F190.9
N4858 X-60. F381.8
N4860 G2 X-50. Y0. I0. J-10.
N4862 G3 X0. Y-50. I50. J0.
N4864 X50. Y0. I0. J50.
N4866 X0. Y50. I-50. J0.
N4868 X-50. Y0. I0. J-50.
N4870 G2 X-60. Y-10. I-10. J0.
N4872 G1 X-70.
N4874 G0 Z-4.
N4876 X-65. Y10.
N4878 Z-18.
N4880 G1 Z-29. F190.9
N4882 X-55. F381.8
N4884 G2 X-45. Y0. I0. J-10.
N4886 G3 X0. Y-45. I45. J0.
N4888 X45. Y0. I0. J45.
N4890 X0. Y45. I-45. J0.
N4892 X-45. Y0. I0. J-45.
N4894 G2 X-55. Y-10. I-10. J0.
N4896 G1 X-65.
N4898 G0 Z-4.
N4900 X-60. Y10.
N4902 Z-18.
N4904 G1 Z-29. F190.9
N4906 X-50. F381.8
N4908 G2 X-40. Y0. I0. J-10.
N4910 G3 X0. Y-40. I40. J0.
N4912 X40. Y0. I0. J40.
N4914 X0. Y40. I-40. J0.
N4916 X-40. Y0. I0. J-40.
N4918 G2 X-50. Y-10. I-10. J0.
N4920 G1 X-60.
N4922 G0 Z-4.
N4924 X-55. Y10.
N4926 Z-18.
N4928 G1 Z-29. F190.9
N4930 X-45. F381.8
N4932 G2 X-35. Y0. I0. J-10.
N4934 G3 X0. Y-35. I35. J0.
N4936 X35. Y0. I0. J35.
N4938 X0. Y35. I-35. J0.
N4940 X-35. Y0. I0. J-35.
N4942 G2 X-45. Y-10. I-10. J0.
N4944 G1 X-55.
N4946 G0 Z-4.
N4948 X-75. Y10.
N4950 Z-19.
N4952 G1 Z-30. F190.9
N4954 X-65. F381.8
N4956 G2 X-55. Y0. I0. J-10.
N4958 G3 X0. Y-55. I55. J0.
N4960 X55. Y0. I0. J55.
N4962 X0. Y55. I-55. J0.
N4964 X-55. Y0. I0. J-55.
N4966 G2 X-65. Y-10. I-10. J0.
N4968 G1 X-75.
N4970 G0 Z-5.
N4972 X-70. Y10.
N4974 Z-19.
N4976 G1 Z-30. F190.9
N4978 X-60. F381.8
N4980 G2 X-50. Y0. I0. J-10.
N4982 G3 X0. Y-50. I50. J0.
N4984 X50. Y0. I0. J50.
N4986 X0. Y50. I-50. J0.
N4988 X-50. Y0. I0. J-50.
N4990 G2 X-60. Y-10. I-10. J0.
N4992 G1 X-70.
N4994 G0 Z-5.
N4996 X-65. Y10.
N4998 Z-19.
N5000 G1 Z-30. F190.9
N5002 X-55. F381.8
N5004 G2 X-45. Y0. I0. J-10.
N5006 G3 X0. Y-45. I45. J0.
N5008 X45. Y0. I0. J45.
N5010 X0. Y45. I-45. J0.
N5012 X-45. Y0. I0. J-45.
N5014 G2 X-55. Y-10. I-10. J0.
N5016 G1 X-65.
N5018 G0 Z-5.
N5020 X-60. Y10.
N5022 Z-19.
N5024 G1 Z-30. F190.9
N5026 X-50. F381.8
N5028 G2 X-40. Y0. I0. J-10.
N5030 G3 X0. Y-40. I40. J0.
N5032 X40. Y0. I0. J40.
N5034 X0. Y40. I-40. J0.
N5036 X-40. Y0. I0. J-40.
N5038 G2 X-50. Y-10. I-10. J0.
N5040 G1 X-60.
N5042 G0 Z-5.
N5044 X-55. Y10.
N5046 Z-19.
N5048 G1 Z-30. F190.9
N5050 X-45. F381.8
N5052 G2 X-35. Y0. I0. J-10.
N5054 G3 X0. Y-35. I35. J0.
N5056 X35. Y0. I0. J35.
N5058 X0. Y35. I-35. J0.
N5060 X-35. Y0. I0. J-35.
N5062 G2 X-45. Y-10. I-10. J0.
N5064 G1 X-55.
N5066 G0 Z25.
N5068 X48.301 Y16.34
N5070 Z10.
N5072 G1 Z-1. F190.9
N5074 X39.641 Y11.34 F381.8
N5076 G2 X34.641 Y10. I-5. J8.66
N5078 X25.981 Y15. I0. J10.
N5080 G1 X20.207 Y25.
N5082 G3 X11.547 Y30. I-8.66 J-5.
N5084 G1 X-11.547
N5086 G3 X-20.207 Y25. I0. J-10.
N5088 G1 X-31.754 Y5.
N5090 G3 X-33.094 Y0. I8.66 J-5.
N5092 X-31.754 Y-5. I10. J0.
N5094 G1 X-20.207 Y-25.
N5096 G3 X-11.547 Y-30. I8.66 J5.
N5098 G1 X11.547
N5100 G3 X20.207 Y-25. I0. J10.
N5102 G1 X31.754 Y-5.
N5104 G3 X33.094 Y0. I-8.66 J5.
N5106 X31.754 Y5. I-10. J0.
N5108 G1 X25.981 Y15.
N5110 G2 X24.641 Y20. I8.66 J5.
N5112 X29.641 Y28.66 I10. J0.
N5114 G1 X38.301 Y33.66
N5116 G0 Z24.
N5118 X43.971 Y13.84
N5120 Z10.
N5122 G1 Z-1. F190.9
N5124 X35.311 Y8.84 F381.8
N5126 G2 X30.311 Y7.5 I-5. J8.66
N5128 X21.651 Y12.5 I0. J10.
N5130 G1 X15.877 Y22.5
N5132 G3 X11.547 Y25. I-4.33 J-2.5
N5134 G1 X-11.547
N5136 G3 X-15.877 Y22.5 I0. J-5.
N5138 G1 X-27.424 Y2.5
N5140 G3 X-28.094 Y0. I4.33 J-2.5
N5142 X-27.424 Y-2.5 I5. J0.
N5144 G1 X-15.877 Y-22.5
N5146 G3 X-11.547 Y-25. I4.33 J2.5
N5148 G1 X11.547
N5150 G3 X15.877 Y-22.5 I0. J5.
N5152 G1 X27.424 Y-2.5
N5154 G3 X28.094 Y0. I-4.33 J2.5
N5156 X27.424 Y2.5 I-5. J0.
N5158 G1 X21.651 Y12.5
N5160 G2 X20.311 Y17.5 I8.66 J5.
N5162 X25.311 Y26.16 I10. J0.
N5164 G1 X33.971 Y31.16
N5166 G0 Z24.
N5168 X48.301 Y16.34
N5170 Z9.
N5172 G1 Z-2. F190.9
N5174 X39.641 Y11.34 F381.8
N5176 G2 X34.641 Y10. I-5. J8.66
N5178 X25.981 Y15. I0. J10.
N5180 G1 X20.207 Y25.
N5182 G3 X11.547 Y30. I-8.66 J-5.
N5184 G1 X-11.547
N5186 G3 X-20.207 Y25. I0. J-10.
N5188 G1 X-31.754 Y5.
N5190 G3 X-33.094 Y0. I8.66 J-5.
N5192 X-31.754 Y-5. I10. J0.
N5194 G1 X-20.207 Y-25.
N5196 G3 X-11.547 Y-30. I8.66 J5.
N5198 G1 X11.547
N5200 G3 X20.207 Y-25. I0. J10.
N5202 G1 X31.754 Y-5.
N5204 G3 X33.094 Y0. I-8.66 J5.
N5206 X31.754 Y5. I-10. J0.
N5208 G1 X25.981 Y15.
N5210 G2 X24.641 Y20. I8.66 J5.
N5212 X29.641 Y28.66 I10. J0.
N5214 G1 X38.301 Y33.66
N5216 G0 Z23.
N5218 X43.971 Y13.84
N5220 Z9.
N5222 G1 Z-2. F190.9
N5224 X35.311 Y8.84 F381.8
N5226 G2 X30.311 Y7.5 I-5. J8.66
N5228 X21.651 Y12.5 I0. J10.
N5230 G1 X15.877 Y22.5
N5232 G3 X11.547 Y25. I-4.33 J-2.5
N5234 G1 X-11.547
N5236 G3 X-15.877 Y22.5 I0. J-5.
N5238 G1 X-27.424 Y2.5
N5240 G3 X-28.094 Y0. I4.33 J-2.5
N5242 X-27.424 Y-2.5 I5. J0.
N5244 G1 X-15.877 Y-22.5
N5246 G3 X-11.547 Y-25. I4.33 J2.5
N5248 G1 X11.547
N5250 G3 X15.877 Y-22.5 I0. J5.
N5252 G1 X27.424 Y-2.5
N5254 G3 X28.094 Y0. I-4.33 J2.5
N5256 X27.424 Y2.5 I-5. J0.
N5258 G1 X21.651 Y12.5
N5260 G2 X20.311 Y17.5 I8.66 J5.
N5262 X25.311 Y26.16 I10. J0.
N5264 G1 X33.971 Y31.16
N5266 G0 Z23.
N5268 X48.301 Y16.34
N5270 Z8.
N5272 G1 Z-3. F190.9
N5274 X39.641 Y11.34 F381.8
N5276 G2 X34.641 Y10. I-5. J8.66
N5278 X25.981 Y15. I0. J10.
N5280 G1 X20.207 Y25.
N5282 G3 X11.547 Y30. I-8.66 J-5.
N5284 G1 X-11.547
N5286 G3 X-20.207 Y25. I0. J-10.
N5288 G1 X-31.754 Y5.
N5290 G3 X-33.094 Y0. I8.66 J-5.
N5292 X-31.754 Y-5. I10. J0.
N5294 G1 X-20.207 Y-25.
N5296 G3 X-11.547 Y-30. I8.66 J5.
N5298 G1 X11.547
N5300 G3 X20.207 Y-25. I0. J10.
N5302 G1 X31.754 Y-5.
N5304 G3 X33.094 Y0. I-8.66 J5.
N5306 X31.754 Y5. I-10. J0.
N5308 G1 X25.981 Y15.
N5310 G2 X24.641 Y20. I8.66 J5.
N5312 X29.641 Y28.66 I10. J0.
N5314 G1 X38.301 Y33.66
N5316 G0 Z22.
N5318 X43.971 Y13.84
N5320 Z8.
N5322 G1 Z-3. F190.9
N5324 X35.311 Y8.84 F381.8
N5326 G2 X30.311 Y7.5 I-5. J8.66
N5328 X21.651 Y12.5 I0. J10.
N5330 G1 X15.877 Y22.5
N5332 G3 X11.547 Y25. I-4.33 J-2.5
N5334 G1 X-11.547
N5336 G3 X-15.877 Y22.5 I0. J-5.
N5338 G1 X-27.424 Y2.5
N5340 G3 X-28.094 Y0. I4.33 J-2.5
N5342 X-27.424 Y-2.5 I5. J0.
N5344 G1 X-15.877 Y-22.5
N5346 G3 X-11.547 Y-25. I4.33 J2.5
N5348 G1 X11.547
N5350 G3 X15.877 Y-22.5 I0. J5.
N5352 G1 X27.424 Y-2.5
N5354 G3 X28.094 Y0. I-4.33 J2.5
N5356 X27.424 Y2.5 I-5. J0.
N5358 G1 X21.651 Y12.5
N5360 G2 X20.311 Y17.5 I8.66 J5.
N5362 X25.311 Y26.16 I10. J0.
N5364 G1 X33.971 Y31.16
N5366 G0 Z22.
N5368 X48.301 Y16.34
N5370 Z7.
N5372 G1 Z-4. F190.9
N5374 X39.641 Y11.34 F381.8
N5376 G2 X34.641 Y10. I-5. J8.66
N5378 X25.981 Y15. I0. J10.
N5380 G1 X20.207 Y25.
N5382 G3 X11.547 Y30. I-8.66 J-5.
N5384 G1 X-11.547
N5386 G3 X-20.207 Y25. I0. J-10.
N5388 G1 X-31.754 Y5.
N5390 G3 X-33.094 Y0. I8.66 J-5.
N5392 X-31.754 Y-5. I10. J0.
N5394 G1 X-20.207 Y-25.
N5396 G3 X-11.547 Y-30. I8.66 J5.
N5398 G1 X11.547
N5400 G3 X20.207 Y-25. I0. J10.
N5402 G1 X31.754 Y-5.
N5404 G3 X33.094 Y0. I-8.66 J5.
N5406 X31.754 Y5. I-10. J0.
N5408 G1 X25.981 Y15.
N5410 G2 X24.641 Y20. I8.66 J5.
N5412 X29.641 Y28.66 I10. J0.
N5414 G1 X38.301 Y33.66
N5416 G0 Z21.
N5418 X43.971 Y13.84
N5420 Z7.
N5422 G1 Z-4. F190.9
N5424 X35.311 Y8.84 F381.8
N5426 G2 X30.311 Y7.5 I-5. J8.66
N5428 X21.651 Y12.5 I0. J10.
N5430 G1 X15.877 Y22.5
N5432 G3 X11.547 Y25. I-4.33 J-2.5
N5434 G1 X-11.547
N5436 G3 X-15.877 Y22.5 I0. J-5.
N5438 G1 X-27.424 Y2.5
N5440 G3 X-28.094 Y0. I4.33 J-2.5
N5442 X-27.424 Y-2.5 I5. J0.
N5444 G1 X-15.877 Y-22.5
N5446 G3 X-11.547 Y-25. I4.33 J2.5
N5448 G1 X11.547
N5450 G3 X15.877 Y-22.5 I0. J5.
N5452 G1 X27.424 Y-2.5
N5454 G3 X28.094 Y0. I-4.33 J2.5
N5456 X27.424 Y2.5 I-5. J0.
N5458 G1 X21.651 Y12.5
N5460 G2 X20.311 Y17.5 I8.66 J5.
N5462 X25.311 Y26.16 I10. J0.
N5464 G1 X33.971 Y31.16
N5466 G0 Z21.
N5468 X48.301 Y16.34
N5470 Z6.
N5472 G1 Z-5. F190.9
N5474 X39.641 Y11.34 F381.8
N5476 G2 X34.641 Y10. I-5. J8.66
N5478 X25.981 Y15. I0. J10.
N5480 G1 X20.207 Y25.
N5482 G3 X11.547 Y30. I-8.66 J-5.
N5484 G1 X-11.547
N5486 G3 X-20.207 Y25. I0. J-10.
N5488 G1 X-31.754 Y5.
N5490 G3 X-33.094 Y0. I8.66 J-5.
N5492 X-31.754 Y-5. I10. J0.
N5494 G1 X-20.207 Y-25.
N5496 G3 X-11.547 Y-30. I8.66 J5.
N5498 G1 X11.547
N5500 G3 X20.207 Y-25. I0. J10.
N5502 G1 X31.754 Y-5.
N5504 G3 X33.094 Y0. I-8.66 J5.
N5506 X31.754 Y5. I-10. J0.
N5508 G1 X25.981 Y15.
N5510 G2 X24.641 Y20. I8.66 J5.
N5512 X29.641 Y28.66 I10. J0.
N5514 G1 X38.301 Y33.66
N5516 G0 Z20.
N5518 X43.971 Y13.84
N5520 Z6.
N5522 G1 Z-5. F190.9
N5524 X35.311 Y8.84 F381.8
N5526 G2 X30.311 Y7.5 I-5. J8.66
N5528 X21.651 Y12.5 I0. J10.
N5530 G1 X15.877 Y22.5
N5532 G3 X11.547 Y25. I-4.33 J-2.5
N5534 G1 X-11.547
N5536 G3 X-15.877 Y22.5 I0. J-5.
N5538 G1 X-27.424 Y2.5
N5540 G3 X-28.094 Y0. I4.33 J-2.5
N5542 X-27.424 Y-2.5 I5. J0.
N5544 G1 X-15.877 Y-22.5
N5546 G3 X-11.547 Y-25. I4.33 J2.5
N5548 G1 X11.547
N5550 G3 X15.877 Y-22.5 I0. J5.
N5552 G1 X27.424 Y-2.5
N5554 G3 X28.094 Y0. I-4.33 J2.5
N5556 X27.424 Y2.5 I-5. J0.
N5558 G1 X21.651 Y12.5
N5560 G2 X20.311 Y17.5 I8.66 J5.
N5562 X25.311 Y26.16 I10. J0.
N5564 G1 X33.971 Y31.16
N5566 G0 Z20.
N5568 X48.301 Y16.34
N5570 Z5.
N5572 G1 Z-6. F190.9
N5574 X39.641 Y11.34 F381.8
N5576 G2 X34.641 Y10. I-5. J8.66
N5578 X25.981 Y15. I0. J10.
N5580 G1 X20.207 Y25.
N5582 G3 X11.547 Y30. I-8.66 J-5.
N5584 G1 X-11.547
N5586 G3 X-20.207 Y25. I0. J-10.
N5588 G1 X-31.754 Y5.
N5590 G3 X-33.094 Y0. I8.66 J-5.
N5592 X-31.754 Y-5. I10. J0.
N5594 G1 X-20.207 Y-25.
N5596 G3 X-11.547 Y-30. I8.66 J5.
N5598 G1 X11.547
N5600 G3 X20.207 Y-25. I0. J10.
N5602 G1 X31.754 Y-5.
N5604 G3 X33.094 Y0. I-8.66 J5.
N5606 X31.754 Y5. I-10. J0.
N5608 G1 X25.981 Y15.
N5610 G2 X24.641 Y20. I8.66 J5.
N5612 X29.641 Y28.66 I10. J0.
N5614 G1 X38.301 Y33.66
N5616 G0 Z19.
N5618 X43.971 Y13.84
N5620 Z5.
N5622 G1 Z-6. F190.9
N5624 X35.311 Y8.84 F381.8
N5626 G2 X30.311 Y7.5 I-5. J8.66
N5628 X21.651 Y12.5 I0. J10.
N5630 G1 X15.877 Y22.5
N5632 G3 X11.547 Y25. I-4.33 J-2.5
N5634 G1 X-11.547
N5636 G3 X-15.877 Y22.5 I0. J-5.
N5638 G1 X-27.424 Y2.5
N5640 G3 X-28.094 Y0. I4.33 J-2.5
N5642 X-27.424 Y-2.5 I5. J0.
N5644 G1 X-15.877 Y-22.5
N5646 G3 X-11.547 Y-25. I4.33 J2.5
N5648 G1 X11.547
N5650 G3 X15.877 Y-22.5 I0. J5.
N5652 G1 X27.424 Y-2.5
N5654 G3 X28.094 Y0. I-4.33 J2.5
N5656 X27.424 Y2.5 I-5. J0.
N5658 G1 X21.651 Y12.5
N5660 G2 X20.311 Y17.5 I8.66 J5.
N5662 X25.311 Y26.16 I10. J0.
N5664 G1 X33.971 Y31.16
N5666 G0 Z19.
N5668 X48.301 Y16.34
N5670 Z4.
N5672 G1 Z-7. F190.9
N5674 X39.641 Y11.34 F381.8
N5676 G2 X34.641 Y10. I-5. J8.66
N5678 X25.981 Y15. I0. J10.
N5680 G1 X20.207 Y25.
N5682 G3 X11.547 Y30. I-8.66 J-5.
N5684 G1 X-11.547
N5686 G3 X-20.207 Y25. I0. J-10.
N5688 G1 X-31.754 Y5.
N5690 G3 X-33.094 Y0. I8.66 J-5.
N5692 X-31.754 Y-5. I10. J0.
N5694 G1 X-20.207 Y-25.
N5696 G3 X-11.547 Y-30. I8.66 J5.
N5698 G1 X11.547
N5700 G3 X20.207 Y-25. I0. J10.
N5702 G1 X31.754 Y-5.
N5704 G3 X33.094 Y0. I-8.66 J5.
N5706 X31.754 Y5. I-10. J0.
N5708 G1 X25.981 Y15.
N5710 G2 X24.641 Y20. I8.66 J5.
N5712 X29.641 Y28.66 I10. J0.
N5714 G1 X38.301 Y33.66
N5716 G0 Z18.
N5718 X43.971 Y13.84
N5720 Z4.
N5722 G1 Z-7. F190.9
N5724 X35.311 Y8.84 F381.8
N5726 G2 X30.311 Y7.5 I-5. J8.66
N5728 X21.651 Y12.5 I0. J10.
N5730 G1 X15.877 Y22.5
N5732 G3 X11.547 Y25. I-4.33 J-2.5
N5734 G1 X-11.547
N5736 G3 X-15.877 Y22.5 I0. J-5.
N5738 G1 X-27.424 Y2.5
N5740 G3 X-28.094 Y0. I4.33 J-2.5
N5742 X-27.424 Y-2.5 I5. J0.
N5744 G1 X-15.877 Y-22.5
N5746 G3 X-11.547 Y-25. I4.33 J2.5
N5748 G1 X11.547
N5750 G3 X15.877 Y-22.5 I0. J5.
N5752 G1 X27.424 Y-2.5
N5754 G3 X28.094 Y0. I-4.33 J2.5
N5756 X27.424 Y2.5 I-5. J0.
N5758 G1 X21.651 Y12.5
N5760 G2 X20.311 Y17.5 I8.66 J5.
N5762 X25.311 Y26.16 I10. J0.
N5764 G1 X33.971 Y31.16
N5766 G0 Z18.
N5768 X48.301 Y16.34
N5770 Z3.
N5772 G1 Z-8. F190.9
N5774 X39.641 Y11.34 F381.8
N5776 G2 X34.641 Y10. I-5. J8.66
N5778 X25.981 Y15. I0. J10.
N5780 G1 X20.207 Y25.
N5782 G3 X11.547 Y30. I-8.66 J-5.
N5784 G1 X-11.547
N5786 G3 X-20.207 Y25. I0. J-10.
N5788 G1 X-31.754 Y5.
N5790 G3 X-33.094 Y0. I8.66 J-5.
N5792 X-31.754 Y-5. I10. J0.
N5794 G1 X-20.207 Y-25.
N5796 G3 X-11.547 Y-30. I8.66 J5.
N5798 G1 X11.547
N5800 G3 X20.207 Y-25. I0. J10.
N5802 G1 X31.754 Y-5.
N5804 G3 X33.094 Y0. I-8.66 J5.
N5806 X31.754 Y5. I-10. J0.
N5808 G1 X25.981 Y15.
N5810 G2 X24.641 Y20. I8.66 J5.
N5812 X29.641 Y28.66 I10. J0.
N5814 G1 X38.301 Y33.66
N5816 G0 Z17.
N5818 X43.971 Y13.84
N5820 Z3.
N5822 G1 Z-8. F190.9
N5824 X35.311 Y8.84 F381.8
N5826 G2 X30.311 Y7.5 I-5. J8.66
N5828 X21.651 Y12.5 I0. J10.
N5830 G1 X15.877 Y22.5
N5832 G3 X11.547 Y25. I-4.33 J-2.5
N5834 G1 X-11.547
N5836 G3 X-15.877 Y22.5 I0. J-5.
N5838 G1 X-27.424 Y2.5
N5840 G3 X-28.094 Y0. I4.33 J-2.5
N5842 X-27.424 Y-2.5 I5. J0.
N5844 G1 X-15.877 Y-22.5
N5846 G3 X-11.547 Y-25. I4.33 J2.5
N5848 G1 X11.547
N5850 G3 X15.877 Y-22.5 I0. J5.
N5852 G1 X27.424 Y-2.5
N5854 G3 X28.094 Y0. I-4.33 J2.5
N5856 X27.424 Y2.5 I-5. J0.
N5858 G1 X21.651 Y12.5
N5860 G2 X20.311 Y17.5 I8.66 J5.
N5862 X25.311 Y26.16 I10. J0.
N5864 G1 X33.971 Y31.16
N5866 G0 Z17.
N5868 X48.301 Y16.34
N5870 Z2.
N5872 G1 Z-9. F190.9
N5874 X39.641 Y11.34 F381.8
N5876 G2 X34.641 Y10. I-5. J8.66
N5878 X25.981 Y15. I0. J10.
N5880 G1 X20.207 Y25.
N5882 G3 X11.547 Y30. I-8.66 J-5.
N5884 G1 X-11.547
N5886 G3 X-20.207 Y25. I0. J-10.
N5888 G1 X-31.754 Y5.
N5890 G3 X-33.094 Y0. I8.66 J-5.
N5892 X-31.754 Y-5. I10. J0.
N5894 G1 X-20.207 Y-25.
N5896 G3 X-11.547 Y-30. I8.66 J5.
N5898 G1 X11.547
N5900 G3 X20.207 Y-25. I0. J10.
N5902 G1 X31.754 Y-5.
N5904 G3 X33.094 Y0. I-8.66 J5.
N5906 X31.754 Y5. I-10. J0.
N5908 G1 X25.981 Y15.
N5910 G2 X24.641 Y20. I8.66 J5.
N5912 X29.641 Y28.66 I10. J0.
N5914 G1 X38.301 Y33.66
N5916 G0 Z16.
N5918 X43.971 Y13.84
N5920 Z2.
N5922 G1 Z-9. F190.9
N5924 X35.311 Y8.84 F381.8
N5926 G2 X30.311 Y7.5 I-5. J8.66
N5928 X21.651 Y12.5 I0. J10.
N5930 G1 X15.877 Y22.5
N5932 G3 X11.547 Y25. I-4.33 J-2.5
N5934 G1 X-11.547
N5936 G3 X-15.877 Y22.5 I0. J-5.
N5938 G1 X-27.424 Y2.5
N5940 G3 X-28.094 Y0. I4.33 J-2.5
N5942 X-27.424 Y-2.5 I5. J0.
N5944 G1 X-15.877 Y-22.5
N5946 G3 X-11.547 Y-25. I4.33 J2.5
N5948 G1 X11.547
N5950 G3 X15.877 Y-22.5 I0. J5.
N5952 G1 X27.424 Y-2.5
N5954 G3 X28.094 Y0. I-4.33 J2.5
N5956 X27.424 Y2.5 I-5. J0.
N5958 G1 X21.651 Y12.5
N5960 G2 X20.311 Y17.5 I8.66 J5.
N5962 X25.311 Y26.16 I10. J0.
N5964 G1 X33.971 Y31.16
N5966 G0 Z16.
N5968 X48.301 Y16.34
N5970 Z1.
N5972 G1 Z-10. F190.9
N5974 X39.641 Y11.34 F381.8
N5976 G2 X34.641 Y10. I-5. J8.66
N5978 X25.981 Y15. I0. J10.
N5980 G1 X20.207 Y25.
N5982 G3 X11.547 Y30. I-8.66 J-5.
N5984 G1 X-11.547
N5986 G3 X-20.207 Y25. I0. J-10.
N5988 G1 X-31.754 Y5.
N5990 G3 X-33.094 Y0. I8.66 J-5.
N5992 X-31.754 Y-5. I10. J0.
N5994 G1 X-20.207 Y-25.
N5996 G3 X-11.547 Y-30. I8.66 J5.
N5998 G1 X11.547
N6000 G3 X20.207 Y-25. I0. J10.
N6002 G1 X31.754 Y-5.
N6004 G3 X33.094 Y0. I-8.66 J5.
N6006 X31.754 Y5. I-10. J0.
N6008 G1 X25.981 Y15.
N6010 G2 X24.641 Y20. I8.66 J5.
N6012 X29.641 Y28.66 I10. J0.
N6014 G1 X38.301 Y33.66
N6016 G0 Z15.
N6018 X43.971 Y13.84
N6020 Z1.
N6022 G1 Z-10. F190.9
N6024 X35.311 Y8.84 F381.8
N6026 G2 X30.311 Y7.5 I-5. J8.66
N6028 X21.651 Y12.5 I0. J10.
N6030 G1 X15.877 Y22.5
N6032 G3 X11.547 Y25. I-4.33 J-2.5
N6034 G1 X-11.547
N6036 G3 X-15.877 Y22.5 I0. J-5.
N6038 G1 X-27.424 Y2.5
N6040 G3 X-28.094 Y0. I4.33 J-2.5
N6042 X-27.424 Y-2.5 I5. J0.
N6044 G1 X-15.877 Y-22.5
N6046 G3 X-11.547 Y-25. I4.33 J2.5
N6048 G1 X11.547
N6050 G3 X15.877 Y-22.5 I0. J5.
N6052 G1 X27.424 Y-2.5
N6054 G3 X28.094 Y0. I-4.33 J2.5
N6056 X27.424 Y2.5 I-5. J0.
N6058 G1 X21.651 Y12.5
N6060 G2 X20.311 Y17.5 I8.66 J5.
N6062 X25.311 Y26.16 I10. J0.
N6064 G1 X33.971 Y31.16
N6066 G0 Z15.
N6068 X48.301 Y16.34
N6070 Z0.
N6072 G1 Z-11. F190.9
N6074 X39.641 Y11.34 F381.8
N6076 G2 X34.641 Y10. I-5. J8.66
N6078 X25.981 Y15. I0. J10.
N6080 G1 X20.207 Y25.
N6082 G3 X11.547 Y30. I-8.66 J-5.
N6084 G1 X-11.547
N6086 G3 X-20.207 Y25. I0. J-10.
N6088 G1 X-31.754 Y5.
N6090 G3 X-33.094 Y0. I8.66 J-5.
N6092 X-31.754 Y-5. I10. J0.
N6094 G1 X-20.207 Y-25.
N6096 G3 X-11.547 Y-30. I8.66 J5.
N6098 G1 X11.547
N6100 G3 X20.207 Y-25. I0. J10.
N6102 G1 X31.754 Y-5.
N6104 G3 X33.094 Y0. I-8.66 J5.
N6106 X31.754 Y5. I-10. J0.
N6108 G1 X25.981 Y15.
N6110 G2 X24.641 Y20. I8.66 J5.
N6112 X29.641 Y28.66 I10. J0.
N6114 G1 X38.301 Y33.66
N6116 G0 Z14.
N6118 X43.971 Y13.84
N6120 Z0.
N6122 G1 Z-11. F190.9
N6124 X35.311 Y8.84 F381.8
N6126 G2 X30.311 Y7.5 I-5. J8.66
N6128 X21.651 Y12.5 I0. J10.
N6130 G1 X15.877 Y22.5
N6132 G3 X11.547 Y25. I-4.33 J-2.5
N6134 G1 X-11.547
N6136 G3 X-15.877 Y22.5 I0. J-5.
N6138 G1 X-27.424 Y2.5
N6140 G3 X-28.094 Y0. I4.33 J-2.5
N6142 X-27.424 Y-2.5 I5. J0.
N6144 G1 X-15.877 Y-22.5
N6146 G3 X-11.547 Y-25. I4.33 J2.5
N6148 G1 X11.547
N6150 G3 X15.877 Y-22.5 I0. J5.
N6152 G1 X27.424 Y-2.5
N6154 G3 X28.094 Y0. I-4.33 J2.5
N6156 X27.424 Y2.5 I-5. J0.
N6158 G1 X21.651 Y12.5
N6160 G2 X20.311 Y17.5 I8.66 J5.
N6162 X25.311 Y26.16 I10. J0.
N6164 G1 X33.971 Y31.16
N6166 G0 Z14.
N6168 X48.301 Y16.34
N6170 Z-1.
N6172 G1 Z-12. F190.9
N6174 X39.641 Y11.34 F381.8
N6176 G2 X34.641 Y10. I-5. J8.66
N6178 X25.981 Y15. I0. J10.
N6180 G1 X20.207 Y25.
N6182 G3 X11.547 Y30. I-8.66 J-5.
N6184 G1 X-11.547
N6186 G3 X-20.207 Y25. I0. J-10.
N6188 G1 X-31.754 Y5.
N6190 G3 X-33.094 Y0. I8.66 J-5.
N6192 X-31.754 Y-5. I10. J0.
N6194 G1 X-20.207 Y-25.
N6196 G3 X-11.547 Y-30. I8.66 J5.
N6198 G1 X11.547
N6200 G3 X20.207 Y-25. I0. J10.
N6202 G1 X31.754 Y-5.
N6204 G3 X33.094 Y0. I-8.66 J5.
N6206 X31.754 Y5. I-10. J0.
N6208 G1 X25.981 Y15.
N6210 G2 X24.641 Y20. I8.66 J5.
N6212 X29.641 Y28.66 I10. J0.
N6214 G1 X38.301 Y33.66
N6216 G0 Z13.
N6218 X43.971 Y13.84
N6220 Z-1.
N6222 G1 Z-12. F190.9
N6224 X35.311 Y8.84 F381.8
N6226 G2 X30.311 Y7.5 I-5. J8.66
N6228 X21.651 Y12.5 I0. J10.
N6230 G1 X15.877 Y22.5
N6232 G3 X11.547 Y25. I-4.33 J-2.5
N6234 G1 X-11.547
N6236 G3 X-15.877 Y22.5 I0. J-5.
N6238 G1 X-27.424 Y2.5
N6240 G3 X-28.094 Y0. I4.33 J-2.5
N6242 X-27.424 Y-2.5 I5. J0.
N6244 G1 X-15.877 Y-22.5
N6246 G3 X-11.547 Y-25. I4.33 J2.5
N6248 G1 X11.547
N6250 G3 X15.877 Y-22.5 I0. J5.
N6252 G1 X27.424 Y-2.5
N6254 G3 X28.094 Y0. I-4.33 J2.5
N6256 X27.424 Y2.5 I-5. J0.
N6258 G1 X21.651 Y12.5
N6260 G2 X20.311 Y17.5 I8.66 J5.
N6262 X25.311 Y26.16 I10. J0.
N6264 G1 X33.971 Y31.16
N6266 G0 Z13.
N6268 X48.301 Y16.34
N6270 Z-2.
N6272 G1 Z-13. F190.9
N6274 X39.641 Y11.34 F381.8
N6276 G2 X34.641 Y10. I-5. J8.66
N6278 X25.981 Y15. I0. J10.
N6280 G1 X20.207 Y25.
N6282 G3 X11.547 Y30. I-8.66 J-5.
N6284 G1 X-11.547
N6286 G3 X-20.207 Y25. I0. J-10.
N6288 G1 X-31.754 Y5.
N6290 G3 X-33.094 Y0. I8.66 J-5.
N6292 X-31.754 Y-5. I10. J0.
N6294 G1 X-20.207 Y-25.
N6296 G3 X-11.547 Y-30. I8.66 J5.
N6298 G1 X11.547
N6300 G3 X20.207 Y-25. I0. J10.
N6302 G1 X31.754 Y-5.
N6304 G3 X33.094 Y0. I-8.66 J5.
N6306 X31.754 Y5. I-10. J0.
N6308 G1 X25.981 Y15.
N6310 G2 X24.641 Y20. I8.66 J5.
N6312 X29.641 Y28.66 I10. J0.
N6314 G1 X38.301 Y33.66
N6316 G0 Z12.
N6318 X43.971 Y13.84
N6320 Z-2.
N6322 G1 Z-13. F190.9
N6324 X35.311 Y8.84 F381.8
N6326 G2 X30.311 Y7.5 I-5. J8.66
N6328 X21.651 Y12.5 I0. J10.
N6330 G1 X15.877 Y22.5
N6332 G3 X11.547 Y25. I-4.33 J-2.5
N6334 G1 X-11.547
N6336 G3 X-15.877 Y22.5 I0. J-5.
N6338 G1 X-27.424 Y2.5
N6340 G3 X-28.094 Y0. I4.33 J-2.5
N6342 X-27.424 Y-2.5 I5. J0.
N6344 G1 X-15.877 Y-22.5
N6346 G3 X-11.547 Y-25. I4.33 J2.5
N6348 G1 X11.547
N6350 G3 X15.877 Y-22.5 I0. J5.
N6352 G1 X27.424 Y-2.5
N6354 G3 X28.094 Y0. I-4.33 J2.5
N6356 X27.424 Y2.5 I-5. J0.
N6358 G1 X21.651 Y12.5
N6360 G2 X20.311 Y17.5 I8.66 J5.
N6362 X25.311 Y26.16 I10. J0.
N6364 G1 X33.971 Y31.16
N6366 G0 Z12.
N6368 X48.301 Y16.34
N6370 Z-3.
N6372 G1 Z-14. F190.9
N6374 X39.641 Y11.34 F381.8
N6376 G2 X34.641 Y10. I-5. J8.66
N6378 X25.981 Y15. I0. J10.
N6380 G1 X20.207 Y25.
N6382 G3 X11.547 Y30. I-8.66 J-5.
N6384 G1 X-11.547
N6386 G3 X-20.207 Y25. I0. J-10.
N6388 G1 X-31.754 Y5.
N6390 G3 X-33.094 Y0. I8.66 J-5.
N6392 X-31.754 Y-5. I10. J0.
N6394 G1 X-20.207 Y-25.
N6396 G3 X-11.547 Y-30. I8.66 J5.
N6398 G1 X11.547
N6400 G3 X20.207 Y-25. I0. J10.
N6402 G1 X31.754 Y-5.
N6404 G3 X33.094 Y0. I-8.66 J5.
N6406 X31.754 Y5. I-10. J0.
N6408 G1 X25.981 Y15.
N6410 G2 X24.641 Y20. I8.66 J5.
N6412 X29.641 Y28.66 I10. J0.
N6414 G1 X38.301 Y33.66
N6416 G0 Z11.
N6418 X43.971 Y13.84
N6420 Z-3.
N6422 G1 Z-14. F190.9
N6424 X35.311 Y8.84 F381.8
N6426 G2 X30.311 Y7.5 I-5. J8.66
N6428 X21.651 Y12.5 I0. J10.
N6430 G1 X15.877 Y22.5
N6432 G3 X11.547 Y25. I-4.33 J-2.5
N6434 G1 X-11.547
N6436 G3 X-15.877 Y22.5 I0. J-5.
N6438 G1 X-27.424 Y2.5
N6440 G3 X-28.094 Y0. I4.33 J-2.5
N6442 X-27.424 Y-2.5 I5. J0.
N6444 G1 X-15.877 Y-22.5
N6446 G3 X-11.547 Y-25. I4.33 J2.5
N6448 G1 X11.547
N6450 G3 X15.877 Y-22.5 I0. J5.
N6452 G1 X27.424 Y-2.5
N6454 G3 X28.094 Y0. I-4.33 J2.5
N6456 X27.424 Y2.5 I-5. J0.
N6458 G1 X21.651 Y12.5
N6460 G2 X20.311 Y17.5 I8.66 J5.
N6462 X25.311 Y26.16 I10. J0.
N6464 G1 X33.971 Y31.16
N6466 G0 Z11.
N6468 X48.301 Y16.34
N6470 Z-4.
N6472 G1 Z-15. F190.9
N6474 X39.641 Y11.34 F381.8
N6476 G2 X34.641 Y10. I-5. J8.66
N6478 X25.981 Y15. I0. J10.
N6480 G1 X20.207 Y25.
N6482 G3 X11.547 Y30. I-8.66 J-5.
N6484 G1 X-11.547
N6486 G3 X-20.207 Y25. I0. J-10.
N6488 G1 X-31.754 Y5.
N6490 G3 X-33.094 Y0. I8.66 J-5.
N6492 X-31.754 Y-5. I10. J0.
N6494 G1 X-20.207 Y-25.
N6496 G3 X-11.547 Y-30. I8.66 J5.
N6498 G1 X11.547
N6500 G3 X20.207 Y-25. I0. J10.
N6502 G1 X31.754 Y-5.
N6504 G3 X33.094 Y0. I-8.66 J5.
N6506 X31.754 Y5. I-10. J0.
N6508 G1 X25.981 Y15.
N6510 G2 X24.641 Y20. I8.66 J5.
N6512 X29.641 Y28.66 I10. J0.
N6514 G1 X38.301 Y33.66
N6516 G0 Z10.
N6518 X43.971 Y13.84
N6520 Z-4.
N6522 G1 Z-15. F190.9
N6524 X35.311 Y8.84 F381.8
N6526 G2 X30.311 Y7.5 I-5. J8.66
N6528 X21.651 Y12.5 I0. J10.
N6530 G1 X15.877 Y22.5
N6532 G3 X11.547 Y25. I-4.33 J-2.5
N6534 G1 X-11.547
N6536 G3 X-15.877 Y22.5 I0. J-5.
N6538 G1 X-27.424 Y2.5
N6540 G3 X-28.094 Y0. I4.33 J-2.5
N6542 X-27.424 Y-2.5 I5. J0.
N6544 G1 X-15.877 Y-22.5
N6546 G3 X-11.547 Y-25. I4.33 J2.5
N6548 G1 X11.547
N6550 G3 X15.877 Y-22.5 I0. J5.
N6552 G1 X27.424 Y-2.5
N6554 G3 X28.094 Y0. I-4.33 J2.5
N6556 X27.424 Y2.5 I-5. J0.
N6558 G1 X21.651 Y12.5
N6560 G2 X20.311 Y17.5 I8.66 J5.
N6562 X25.311 Y26.16 I10. J0.
N6564 G1 X33.971 Y31.16
N6566 G0 Z10.
N6568 X48.301 Y16.34
N6570 Z-5.
N6572 G1 Z-16. F190.9
N6574 X39.641 Y11.34 F381.8
N6576 G2 X34.641 Y10. I-5. J8.66
N6578 X25.981 Y15. I0. J10.
N6580 G1 X20.207 Y25.
N6582 G3 X11.547 Y30. I-8.66 J-5.
N6584 G1 X-11.547
N6586 G3 X-20.207 Y25. I0. J-10.
N6588 G1 X-31.754 Y5.
N6590 G3 X-33.094 Y0. I8.66 J-5.
N6592 X-31.754 Y-5. I10. J0.
N6594 G1 X-20.207 Y-25.
N6596 G3 X-11.547 Y-30. I8.66 J5.
N6598 G1 X11.547
N6600 G3 X20.207 Y-25. I0. J10.
N6602 G1 X31.754 Y-5.
N6604 G3 X33.094 Y0. I-8.66 J5.
N6606 X31.754 Y5. I-10. J0.
N6608 G1 X25.981 Y15.
N6610 G2 X24.641 Y20. I8.66 J5.
N6612 X29.641 Y28.66 I10. J0.
N6614 G1 X38.301 Y33.66
N6616 G0 Z9.
N6618 X43.971 Y13.84
N6620 Z-5.
N6622 G1 Z-16. F190.9
N6624 X35.311 Y8.84 F381.8
N6626 G2 X30.311 Y7.5 I-5. J8.66
N6628 X21.651 Y12.5 I0. J10.
N6630 G1 X15.877 Y22.5
N6632 G3 X11.547 Y25. I-4.33 J-2.5
N6634 G1 X-11.547
N6636 G3 X-15.877 Y22.5 I0. J-5.
N6638 G1 X-27.424 Y2.5
N6640 G3 X-28.094 Y0. I4.33 J-2.5
N6642 X-27.424 Y-2.5 I5. J0.
N6644 G1 X-15.877 Y-22.5
N6646 G3 X-11.547 Y-25. I4.33 J2.5
N6648 G1 X11.547
N6650 G3 X15.877 Y-22.5 I0. J5.
N6652 G1 X27.424 Y-2.5
N6654 G3 X28.094 Y0. I-4.33 J2.5
N6656 X27.424 Y2.5 I-5. J0.
N6658 G1 X21.651 Y12.5
N6660 G2 X20.311 Y17.5 I8.66 J5.
N6662 X25.311 Y26.16 I10. J0.
N6664 G1 X33.971 Y31.16
N6666 G0 Z9.
N6668 X48.301 Y16.34
N6670 Z-6.
N6672 G1 Z-17. F190.9
N6674 X39.641 Y11.34 F381.8
N6676 G2 X34.641 Y10. I-5. J8.66
N6678 X25.981 Y15. I0. J10.
N6680 G1 X20.207 Y25.
N6682 G3 X11.547 Y30. I-8.66 J-5.
N6684 G1 X-11.547
N6686 G3 X-20.207 Y25. I0. J-10.
N6688 G1 X-31.754 Y5.
N6690 G3 X-33.094 Y0. I8.66 J-5.
N6692 X-31.754 Y-5. I10. J0.
N6694 G1 X-20.207 Y-25.
N6696 G3 X-11.547 Y-30. I8.66 J5.
N6698 G1 X11.547
N6700 G3 X20.207 Y-25. I0. J10.
N6702 G1 X31.754 Y-5.
N6704 G3 X33.094 Y0. I-8.66 J5.
N6706 X31.754 Y5. I-10. J0.
N6708 G1 X25.981 Y15.
N6710 G2 X24.641 Y20. I8.66 J5.
N6712 X29.641 Y28.66 I10. J0.
N6714 G1 X38.301 Y33.66
N6716 G0 Z8.
N6718 X43.971 Y13.84
N6720 Z-6.
N6722 G1 Z-17. F190.9
N6724 X35.311 Y8.84 F381.8
N6726 G2 X30.311 Y7.5 I-5. J8.66
N6728 X21.651 Y12.5 I0. J10.
N6730 G1 X15.877 Y22.5
N6732 G3 X11.547 Y25. I-4.33 J-2.5
N6734 G1 X-11.547
N6736 G3 X-15.877 Y22.5 I0. J-5.
N6738 G1 X-27.424 Y2.5
N6740 G3 X-28.094 Y0. I4.33 J-2.5
N6742 X-27.424 Y-2.5 I5. J0.
N6744 G1 X-15.877 Y-22.5
N6746 G3 X-11.547 Y-25. I4.33 J2.5
N6748 G1 X11.547
N6750 G3 X15.877 Y-22.5 I0. J5.
N6752 G1 X27.424 Y-2.5
N6754 G3 X28.094 Y0. I-4.33 J2.5
N6756 X27.424 Y2.5 I-5. J0.
N6758 G1 X21.651 Y12.5
N6760 G2 X20.311 Y17.5 I8.66 J5.
N6762 X25.311 Y26.16 I10. J0.
N6764 G1 X33.971 Y31.16
N6766 G0 Z8.
N6768 X48.301 Y16.34
N6770 Z-7.
N6772 G1 Z-18. F190.9
N6774 X39.641 Y11.34 F381.8
N6776 G2 X34.641 Y10. I-5. J8.66
N6778 X25.981 Y15. I0. J10.
N6780 G1 X20.207 Y25.
N6782 G3 X11.547 Y30. I-8.66 J-5.
N6784 G1 X-11.547
N6786 G3 X-20.207 Y25. I0. J-10.
N6788 G1 X-31.754 Y5.
N6790 G3 X-33.094 Y0. I8.66 J-5.
N6792 X-31.754 Y-5. I10. J0.
N6794 G1 X-20.207 Y-25.
N6796 G3 X-11.547 Y-30. I8.66 J5.
N6798 G1 X11.547
N6800 G3 X20.207 Y-25. I0. J10.
N6802 G1 X31.754 Y-5.
N6804 G3 X33.094 Y0. I-8.66 J5.
N6806 X31.754 Y5. I-10. J0.
N6808 G1 X25.981 Y15.
N6810 G2 X24.641 Y20. I8.66 J5.
N6812 X29.641 Y28.66 I10. J0.
N6814 G1 X38.301 Y33.66
N6816 G0 Z7.
N6818 X43.971 Y13.84
N6820 Z-7.
N6822 G1 Z-18. F190.9
N6824 X35.311 Y8.84 F381.8
N6826 G2 X30.311 Y7.5 I-5. J8.66
N6828 X21.651 Y12.5 I0. J10.
N6830 G1 X15.877 Y22.5
N6832 G3 X11.547 Y25. I-4.33 J-2.5
N6834 G1 X-11.547
N6836 G3 X-15.877 Y22.5 I0. J-5.
N6838 G1 X-27.424 Y2.5
N6840 G3 X-28.094 Y0. I4.33 J-2.5
N6842 X-27.424 Y-2.5 I5. J0.
N6844 G1 X-15.877 Y-22.5
N6846 G3 X-11.547 Y-25. I4.33 J2.5
N6848 G1 X11.547
N6850 G3 X15.877 Y-22.5 I0. J5.
N6852 G1 X27.424 Y-2.5
N6854 G3 X28.094 Y0. I-4.33 J2.5
N6856 X27.424 Y2.5 I-5. J0.
N6858 G1 X21.651 Y12.5
N6860 G2 X20.311 Y17.5 I8.66 J5.
N6862 X25.311 Y26.16 I10. J0.
N6864 G1 X33.971 Y31.16
N6866 G0 Z7.
N6868 X48.301 Y16.34
N6870 Z-8.
N6872 G1 Z-19. F190.9
N6874 X39.641 Y11.34 F381.8
N6876 G2 X34.641 Y10. I-5. J8.66
N6878 X25.981 Y15. I0. J10.
N6880 G1 X20.207 Y25.
N6882 G3 X11.547 Y30. I-8.66 J-5.
N6884 G1 X-11.547
N6886 G3 X-20.207 Y25. I0. J-10.
N6888 G1 X-31.754 Y5.
N6890 G3 X-33.094 Y0. I8.66 J-5.
N6892 X-31.754 Y-5. I10. J0.
N6894 G1 X-20.207 Y-25.
N6896 G3 X-11.547 Y-30. I8.66 J5.
N6898 G1 X11.547
N6900 G3 X20.207 Y-25. I0. J10.
N6902 G1 X31.754 Y-5.
N6904 G3 X33.094 Y0. I-8.66 J5.
N6906 X31.754 Y5. I-10. J0.
N6908 G1 X25.981 Y15.
N6910 G2 X24.641 Y20. I8.66 J5.
N6912 X29.641 Y28.66 I10. J0.
N6914 G1 X38.301 Y33.66
N6916 G0 Z6.
N6918 X43.971 Y13.84
N6920 Z-8.
N6922 G1 Z-19. F190.9
N6924 X35.311 Y8.84 F381.8
N6926 G2 X30.311 Y7.5 I-5. J8.66
N6928 X21.651 Y12.5 I0. J10.
N6930 G1 X15.877 Y22.5
N6932 G3 X11.547 Y25. I-4.33 J-2.5
N6934 G1 X-11.547
N6936 G3 X-15.877 Y22.5 I0. J-5.
N6938 G1 X-27.424 Y2.5
N6940 G3 X-28.094 Y0. I4.33 J-2.5
N6942 X-27.424 Y-2.5 I5. J0.
N6944 G1 X-15.877 Y-22.5
N6946 G3 X-11.547 Y-25. I4.33 J2.5
N6948 G1 X11.547
N6950 G3 X15.877 Y-22.5 I0. J5.
N6952 G1 X27.424 Y-2.5
N6954 G3 X28.094 Y0. I-4.33 J2.5
N6956 X27.424 Y2.5 I-5. J0.
N6958 G1 X21.651 Y12.5
N6960 G2 X20.311 Y17.5 I8.66 J5.
N6962 X25.311 Y26.16 I10. J0.
N6964 G1 X33.971 Y31.16
N6966 G0 Z6.
N6968 X48.301 Y16.34
N6970 Z-9.
N6972 G1 Z-20. F190.9
N6974 X39.641 Y11.34 F381.8
N6976 G2 X34.641 Y10. I-5. J8.66
N6978 X25.981 Y15. I0. J10.
N6980 G1 X20.207 Y25.
N6982 G3 X11.547 Y30. I-8.66 J-5.
N6984 G1 X-11.547
N6986 G3 X-20.207 Y25. I0. J-10.
N6988 G1 X-31.754 Y5.
N6990 G3 X-33.094 Y0. I8.66 J-5.
N6992 X-31.754 Y-5. I10. J0.
N6994 G1 X-20.207 Y-25.
N6996 G3 X-11.547 Y-30. I8.66 J5.
N6998 G1 X11.547
N7000 G3 X20.207 Y-25. I0. J10.
N7002 G1 X31.754 Y-5.
N7004 G3 X33.094 Y0. I-8.66 J5.
N7006 X31.754 Y5. I-10. J0.
N7008 G1 X25.981 Y15.
N7010 G2 X24.641 Y20. I8.66 J5.
N7012 X29.641 Y28.66 I10. J0.
N7014 G1 X38.301 Y33.66
N7016 G0 Z5.
N7018 X43.971 Y13.84
N7020 Z-9.
N7022 G1 Z-20. F190.9
N7024 X35.311 Y8.84 F381.8
N7026 G2 X30.311 Y7.5 I-5. J8.66
N7028 X21.651 Y12.5 I0. J10.
N7030 G1 X15.877 Y22.5
N7032 G3 X11.547 Y25. I-4.33 J-2.5
N7034 G1 X-11.547
N7036 G3 X-15.877 Y22.5 I0. J-5.
N7038 G1 X-27.424 Y2.5
N7040 G3 X-28.094 Y0. I4.33 J-2.5
N7042 X-27.424 Y-2.5 I5. J0.
N7044 G1 X-15.877 Y-22.5
N7046 G3 X-11.547 Y-25. I4.33 J2.5
N7048 G1 X11.547
N7050 G3 X15.877 Y-22.5 I0. J5.
N7052 G1 X27.424 Y-2.5
N7054 G3 X28.094 Y0. I-4.33 J2.5
N7056 X27.424 Y2.5 I-5. J0.
N7058 G1 X21.651 Y12.5
N7060 G2 X20.311 Y17.5 I8.66 J5.
N7062 X25.311 Y26.16 I10. J0.
N7064 G1 X33.971 Y31.16
N7066 G0 Z25.
N7068 X-.022 Y-2.5
N7070 Z10.
N7072 G1 Z-1. F190.9
N7074 X.022 F381.8
N7076 G3 X2.5 Y0. I-.022 J2.5
N7078 X.022 Y2.5 I-2.5 J0.
N7080 G1 X-.022
N7082 G0 Z24.
N7084 X5. Y0.
N7086 Z10.
N7088 G1 Z-1. F190.9
N7090 G3 X0. Y5. I-5. J0. F381.8
N7092 X-5. Y0. I0. J-5.
N7094 X0. Y-5. I5. J0.
N7096 X5. Y0. I0. J5.
N7098 G0 Z24.
N7100 X-.022 Y-2.5
N7102 Z9.
N7104 G1 Z-2. F190.9
N7106 X.022 F381.8
N7108 G3 X2.5 Y0. I-.022 J2.5
N7110 X.022 Y2.5 I-2.5 J0.
N7112 G1 X-.022
N7114 G0 Z23.
N7116 X5. Y0.
N7118 Z9.
N7120 G1 Z-2. F190.9
N7122 G3 X0. Y5. I-5. J0. F381.8
N7124 X-5. Y0. I0. J-5.
N7126 X0. Y-5. I5. J0.
N7128 X5. Y0. I0. J5.
N7130 G0 Z23.
N7132 X-.022 Y-2.5
N7134 Z8.
N7136 G1 Z-3. F190.9
N7138 X.022 F381.8
N7140 G3 X2.5 Y0. I-.022 J2.5
N7142 X.022 Y2.5 I-2.5 J0.
N7144 G1 X-.022
N7146 G0 Z22.
N7148 X5. Y0.
N7150 Z8.
N7152 G1 Z-3. F190.9
N7154 G3 X0. Y5. I-5. J0. F381.8
N7156 X-5. Y0. I0. J-5.
N7158 X0. Y-5. I5. J0.
N7160 X5. Y0. I0. J5.
N7162 G0 Z22.
N7164 X-.022 Y-2.5
N7166 Z7.
N7168 G1 Z-4. F190.9
N7170 X.022 F381.8
N7172 G3 X2.5 Y0. I-.022 J2.5
N7174 X.022 Y2.5 I-2.5 J0.
N7176 G1 X-.022
N7178 G0 Z21.
N7180 X5. Y0.
N7182 Z7.
N7184 G1 Z-4. F190.9
N7186 G3 X0. Y5. I-5. J0. F381.8
N7188 X-5. Y0. I0. J-5.
N7190 X0. Y-5. I5. J0.
N7192 X5. Y0. I0. J5.
N7194 G0 Z21.
N7196 X-.022 Y-2.5
N7198 Z6.
N7200 G1 Z-5. F190.9
N7202 X.022 F381.8
N7204 G3 X2.5 Y0. I-.022 J2.5
N7206 X.022 Y2.5 I-2.5 J0.
N7208 G1 X-.022
N7210 G0 Z20.
N7212 X5. Y0.
N7214 Z6.
N7216 G1 Z-5. F190.9
N7218 G3 X0. Y5. I-5. J0. F381.8
N7220 X-5. Y0. I0. J-5.
N7222 X0. Y-5. I5. J0.
N7224 X5. Y0. I0. J5.
N7226 G0 Z20.
N7228 X-.022 Y-2.5
N7230 Z5.
N7232 G1 Z-6. F190.9
N7234 X.022 F381.8
N7236 G3 X2.5 Y0. I-.022 J2.5
N7238 X.022 Y2.5 I-2.5 J0.
N7240 G1 X-.022
N7242 G0 Z19.
N7244 X5. Y0.
N7246 Z5.
N7248 G1 Z-6. F190.9
N7250 G3 X0. Y5. I-5. J0. F381.8
N7252 X-5. Y0. I0. J-5.
N7254 X0. Y-5. I5. J0.
N7256 X5. Y0. I0. J5.
N7258 G0 Z19.
N7260 X-.022 Y-2.5
N7262 Z4.
N7264 G1 Z-7. F190.9
N7266 X.022 F381.8
N7268 G3 X2.5 Y0. I-.022 J2.5
N7270 X.022 Y2.5 I-2.5 J0.
N7272 G1 X-.022
N7274 G0 Z18.
N7276 X5. Y0.
N7278 Z4.
N7280 G1 Z-7. F190.9
N7282 G3 X0. Y5. I-5. J0. F381.8
N7284 X-5. Y0. I0. J-5.
N7286 X0. Y-5. I5. J0.
N7288 X5. Y0. I0. J5.
N7290 G0 Z18.
N7292 X-.022 Y-2.5
N7294 Z3.
N7296 G1 Z-8. F190.9
N7298 X.022 F381.8
N7300 G3 X2.5 Y0. I-.022 J2.5
N7302 X.022 Y2.5 I-2.5 J0.
N7304 G1 X-.022
N7306 G0 Z17.
N7308 X5. Y0.
N7310 Z3.
N7312 G1 Z-8. F190.9
N7314 G3 X0. Y5. I-5. J0. F381.8
N7316 X-5. Y0. I0. J-5.
N7318 X0. Y-5. I5. J0.
N7320 X5. Y0. I0. J5.
N7322 G0 Z17.
N7324 X-.022 Y-2.5
N7326 Z2.
N7328 G1 Z-9. F190.9
N7330 X.022 F381.8
N7332 G3 X2.5 Y0. I-.022 J2.5
N7334 X.022 Y2.5 I-2.5 J0.
N7336 G1 X-.022
N7338 G0 Z16.
N7340 X5. Y0.
N7342 Z2.
N7344 G1 Z-9. F190.9
N7346 G3 X0. Y5. I-5. J0. F381.8
N7348 X-5. Y0. I0. J-5.
N7350 X0. Y-5. I5. J0.
N7352 X5. Y0. I0. J5.
N7354 G0 Z16.
N7356 X-.022 Y-2.5
N7358 Z1.
N7360 G1 Z-10. F190.9
N7362 X.022 F381.8
N7364 G3 X2.5 Y0. I-.022 J2.5
N7366 X.022 Y2.5 I-2.5 J0.
N7368 G1 X-.022
N7370 G0 Z15.
N7372 X5. Y0.
N7374 Z1.
N7376 G1 Z-10. F190.9
N7378 G3 X0. Y5. I-5. J0. F381.8
N7380 X-5. Y0. I0. J-5.
N7382 X0. Y-5. I5. J0.
N7384 X5. Y0. I0. J5.
N7386 G0 Z15.
N7388 X-.022 Y-2.5
N7390 Z0.
N7392 G1 Z-11. F190.9
N7394 X.022 F381.8
N7396 G3 X2.5 Y0. I-.022 J2.5
N7398 X.022 Y2.5 I-2.5 J0.
N7400 G1 X-.022
N7402 G0 Z14.
N7404 X5. Y0.
N7406 Z0.
N7408 G1 Z-11. F190.9
N7410 G3 X0. Y5. I-5. J0. F381.8
N7412 X-5. Y0. I0. J-5.
N7414 X0. Y-5. I5. J0.
N7416 X5. Y0. I0. J5.
N7418 G0 Z14.
N7420 X-.022 Y-2.5
N7422 Z-1.
N7424 G1 Z-12. F190.9
N7426 X.022 F381.8
N7428 G3 X2.5 Y0. I-.022 J2.5
N7430 X.022 Y2.5 I-2.5 J0.
N7432 G1 X-.022
N7434 G0 Z13.
N7436 X5. Y0.
N7438 Z-1.
N7440 G1 Z-12. F190.9
N7442 G3 X0. Y5. I-5. J0. F381.8
N7444 X-5. Y0. I0. J-5.
N7446 X0. Y-5. I5. J0.
N7448 X5. Y0. I0. J5.
N7450 G0 Z13.
N7452 X-.022 Y-2.5
N7454 Z-2.
N7456 G1 Z-13. F190.9
N7458 X.022 F381.8
N7460 G3 X2.5 Y0. I-.022 J2.5
N7462 X.022 Y2.5 I-2.5 J0.
N7464 G1 X-.022
N7466 G0 Z12.
N7468 X5. Y0.
N7470 Z-2.
N7472 G1 Z-13. F190.9
N7474 G3 X0. Y5. I-5. J0. F381.8
N7476 X-5. Y0. I0. J-5.
N7478 X0. Y-5. I5. J0.
N7480 X5. Y0. I0. J5.
N7482 G0 Z12.
N7484 X-.022 Y-2.5
N7486 Z-3.
N7488 G1 Z-14. F190.9
N7490 X.022 F381.8
N7492 G3 X2.5 Y0. I-.022 J2.5
N7494 X.022 Y2.5 I-2.5 J0.
N7496 G1 X-.022
N7498 G0 Z11.
N7500 X5. Y0.
N7502 Z-3.
N7504 G1 Z-14. F190.9
N7506 G3 X0. Y5. I-5. J0. F381.8
N7508 X-5. Y0. I0. J-5.
N7510 X0. Y-5. I5. J0.
N7512 X5. Y0. I0. J5.
N7514 G0 Z11.
N7516 X-.022 Y-2.5
N7518 Z-4.
N7520 G1 Z-15. F190.9
N7522 X.022 F381.8
N7524 G3 X2.5 Y0. I-.022 J2.5
N7526 X.022 Y2.5 I-2.5 J0.
N7528 G1 X-.022
N7530 G0 Z10.
N7532 X5. Y0.
N7534 Z-4.
N7536 G1 Z-15. F190.9
N7538 G3 X0. Y5. I-5. J0. F381.8
N7540 X-5. Y0. I0. J-5.
N7542 X0. Y-5. I5. J0.
N7544 X5. Y0. I0. J5.
N7546 G0 Z10.
N7548 X-.022 Y-2.5
N7550 Z-5.
N7552 G1 Z-16. F190.9
N7554 X.022 F381.8
N7556 G3 X2.5 Y0. I-.022 J2.5
N7558 X.022 Y2.5 I-2.5 J0.
N7560 G1 X-.022
N7562 G0 Z9.
N7564 X5. Y0.
N7566 Z-5.
N7568 G1 Z-16. F190.9
N7570 G3 X0. Y5. I-5. J0. F381.8
N7572 X-5. Y0. I0. J-5.
N7574 X0. Y-5. I5. J0.
N7576 X5. Y0. I0. J5.
N7578 G0 Z9.
N7580 X-.022 Y-2.5
N7582 Z-6.
N7584 G1 Z-17. F190.9
N7586 X.022 F381.8
N7588 G3 X2.5 Y0. I-.022 J2.5
N7590 X.022 Y2.5 I-2.5 J0.
N7592 G1 X-.022
N7594 G0 Z8.
N7596 X5. Y0.
N7598 Z-6.
N7600 G1 Z-17. F190.9
N7602 G3 X0. Y5. I-5. J0. F381.8
N7604 X-5. Y0. I0. J-5.
N7606 X0. Y-5. I5. J0.
N7608 X5. Y0. I0. J5.
N7610 G0 Z8.
N7612 X-.022 Y-2.5
N7614 Z-7.
N7616 G1 Z-18. F190.9
N7618 X.022 F381.8
N7620 G3 X2.5 Y0. I-.022 J2.5
N7622 X.022 Y2.5 I-2.5 J0.
N7624 G1 X-.022
N7626 G0 Z7.
N7628 X5. Y0.
N7630 Z-7.
N7632 G1 Z-18. F190.9
N7634 G3 X0. Y5. I-5. J0. F381.8
N7636 X-5. Y0. I0. J-5.
N7638 X0. Y-5. I5. J0.
N7640 X5. Y0. I0. J5.
N7642 G0 Z7.
N7644 X-.022 Y-2.5
N7646 Z-8.
N7648 G1 Z-19. F190.9
N7650 X.022 F381.8
N7652 G3 X2.5 Y0. I-.022 J2.5
N7654 X.022 Y2.5 I-2.5 J0.
N7656 G1 X-.022
N7658 G0 Z6.
N7660 X5. Y0.
N7662 Z-8.
N7664 G1 Z-19. F190.9
N7666 G3 X0. Y5. I-5. J0. F381.8
N7668 X-5. Y0. I0. J-5.
N7670 X0. Y-5. I5. J0.
N7672 X5. Y0. I0. J5.
N7674 G0 Z6.
N7676 X-.022 Y-2.5
N7678 Z-9.
N7680 G1 Z-20. F190.9
N7682 X.022 F381.8
N7684 G3 X2.5 Y0. I-.022 J2.5
N7686 X.022 Y2.5 I-2.5 J0.
N7688 G1 X-.022
N7690 G0 Z5.
N7692 X5. Y0.
N7694 Z-9.
N7696 G1 Z-20. F190.9
N7698 G3 X0. Y5. I-5. J0. F381.8
N7700 X-5. Y0. I0. J-5.
N7702 X0. Y-5. I5. J0.
N7704 X5. Y0. I0. J5.
N7706 G0 Z5.
N7708 X-.022 Y-2.5
N7710 Z-10.
N7712 G1 Z-21. F190.9
N7714 X.022 F381.8
N7716 G3 X2.5 Y0. I-.022 J2.5
N7718 X.022 Y2.5 I-2.5 J0.
N7720 G1 X-.022
N7722 G0 Z4.
N7724 X5. Y0.
N7726 Z-10.
N7728 G1 Z-21. F190.9
N7730 G3 X0. Y5. I-5. J0. F381.8
N7732 X-5. Y0. I0. J-5.
N7734 X0. Y-5. I5. J0.
N7736 X5. Y0. I0. J5.
N7738 G0 Z4.
N7740 X-.022 Y-2.5
N7742 Z-11.
N7744 G1 Z-22. F190.9
N7746 X.022 F381.8
N7748 G3 X2.5 Y0. I-.022 J2.5
N7750 X.022 Y2.5 I-2.5 J0.
N7752 G1 X-.022
N7754 G0 Z3.
N7756 X5. Y0.
N7758 Z-11.
N7760 G1 Z-22. F190.9
N7762 G3 X0. Y5. I-5. J0. F381.8
N7764 X-5. Y0. I0. J-5.
N7766 X0. Y-5. I5. J0.
N7768 X5. Y0. I0. J5.
N7770 G0 Z3.
N7772 X-.022 Y-2.5
N7774 Z-12.
N7776 G1 Z-23. F190.9
N7778 X.022 F381.8
N7780 G3 X2.5 Y0. I-.022 J2.5
N7782 X.022 Y2.5 I-2.5 J0.
N7784 G1 X-.022
N7786 G0 Z2.
N7788 X5. Y0.
N7790 Z-12.
N7792 G1 Z-23. F190.9
N7794 G3 X0. Y5. I-5. J0. F381.8
N7796 X-5. Y0. I0. J-5.
N7798 X0. Y-5. I5. J0.
N7800 X5. Y0. I0. J5.
N7802 G0 Z2.
N7804 X-.022 Y-2.5
N7806 Z-13.
N7808 G1 Z-24. F190.9
N7810 X.022 F381.8
N7812 G3 X2.5 Y0. I-.022 J2.5
N7814 X.022 Y2.5 I-2.5 J0.
N7816 G1 X-.022
N7818 G0 Z1.
N7820 X5. Y0.
N7822 Z-13.
N7824 G1 Z-24. F190.9
N7826 G3 X0. Y5. I-5. J0. F381.8
N7828 X-5. Y0. I0. J-5.
N7830 X0. Y-5. I5. J0.
N7832 X5. Y0. I0. J5.
N7834 G0 Z1.
N7836 X-.022 Y-2.5
N7838 Z-14.
N7840 G1 Z-25. F190.9
N7842 X.022 F381.8
N7844 G3 X2.5 Y0. I-.022 J2.5
N7846 X.022 Y2.5 I-2.5 J0.
N7848 G1 X-.022
N7850 G0 Z0.
N7852 X5. Y0.
N7854 Z-14.
N7856 G1 Z-25. F190.9
N7858 G3 X0. Y5. I-5. J0. F381.8
N7860 X-5. Y0. I0. J-5.
N7862 X0. Y-5. I5. J0.
N7864 X5. Y0. I0. J5.
N7866 G0 Z0.
N7868 X-.022 Y-2.5
N7870 Z-15.
N7872 G1 Z-26. F190.9
N7874 X.022 F381.8
N7876 G3 X2.5 Y0. I-.022 J2.5
N7878 X.022 Y2.5 I-2.5 J0.
N7880 G1 X-.022
N7882 G0 Z-1.
N7884 X5. Y0.
N7886 Z-15.
N7888 G1 Z-26. F190.9
N7890 G3 X0. Y5. I-5. J0. F381.8
N7892 X-5. Y0. I0. J-5.
N7894 X0. Y-5. I5. J0.
N7896 X5. Y0. I0. J5.
N7898 G0 Z-1.
N7900 X-.022 Y-2.5
N7902 Z-16.
N7904 G1 Z-27. F190.9
N7906 X.022 F381.8
N7908 G3 X2.5 Y0. I-.022 J2.5
N7910 X.022 Y2.5 I-2.5 J0.
N7912 G1 X-.022
N7914 G0 Z-2.
N7916 X5. Y0.
N7918 Z-16.
N7920 G1 Z-27. F190.9
N7922 G3 X0. Y5. I-5. J0. F381.8
N7924 X-5. Y0. I0. J-5.
N7926 X0. Y-5. I5. J0.
N7928 X5. Y0. I0. J5.
N7930 G0 Z-2.
N7932 X-.022 Y-2.5
N7934 Z-17.
N7936 G1 Z-28. F190.9
N7938 X.022 F381.8
N7940 G3 X2.5 Y0. I-.022 J2.5
N7942 X.022 Y2.5 I-2.5 J0.
N7944 G1 X-.022
N7946 G0 Z-3.
N7948 X5. Y0.
N7950 Z-17.
N7952 G1 Z-28. F190.9
N7954 G3 X0. Y5. I-5. J0. F381.8
N7956 X-5. Y0. I0. J-5.
N7958 X0. Y-5. I5. J0.
N7960 X5. Y0. I0. J5.
N7962 G0 Z-3.
N7964 X-.022 Y-2.5
N7966 Z-18.
N7968 G1 Z-29. F190.9
N7970 X.022 F381.8
N7972 G3 X2.5 Y0. I-.022 J2.5
N7974 X.022 Y2.5 I-2.5 J0.
N7976 G1 X-.022
N7978 G0 Z-4.
N7980 X5. Y0.
N7982 Z-18.
N7984 G1 Z-29. F190.9
N7986 G3 X0. Y5. I-5. J0. F381.8
N7988 X-5. Y0. I0. J-5.
N7990 X0. Y-5. I5. J0.
N7992 X5. Y0. I0. J5.
N7994 G0 Z-4.
N7996 X-.022 Y-2.5
N7998 Z-19.
N8000 G1 Z-30. F190.9
N8002 X.022 F381.8
N8004 G3 X2.5 Y0. I-.022 J2.5
N8006 X.022 Y2.5 I-2.5 J0.
N8008 G1 X-.022
N8010 G0 Z-5.
N8012 X5. Y0.
N8014 Z-19.
N8016 G1 Z-30. F190.9
N8018 G3 X0. Y5. I-5. J0. F381.8
N8020 X-5. Y0. I0. J-5.
N8022 X0. Y-5. I5. J0.
N8024 X5. Y0. I0. J5.
N8026 G0 Z-5.
N8028 X-.022 Y-2.5
N8030 Z-20.
N8032 G1 Z-31. F190.9
N8034 X.022 F381.8
N8036 G3 X2.5 Y0. I-.022 J2.5
N8038 X.022 Y2.5 I-2.5 J0.
N8040 G1 X-.022
N8042 G0 Z-6.
N8044 X5. Y0.
N8046 Z-20.
N8048 G1 Z-31. F190.9
N8050 G3 X0. Y5. I-5. J0. F381.8
N8052 X-5. Y0. I0. J-5.
N8054 X0. Y-5. I5. J0.
N8056 X5. Y0. I0. J5.
N8058 G0 Z-6.
N8060 X-.022 Y-2.5
N8062 Z-21.
N8064 G1 Z-32. F190.9
N8066 X.022 F381.8
N8068 G3 X2.5 Y0. I-.022 J2.5
N8070 X.022 Y2.5 I-2.5 J0.
N8072 G1 X-.022
N8074 G0 Z-7.
N8076 X5. Y0.
N8078 Z-21.
N8080 G1 Z-32. F190.9
N8082 G3 X0. Y5. I-5. J0. F381.8
N8084 X-5. Y0. I0. J-5.
N8086 X0. Y-5. I5. J0.
N8088 X5. Y0. I0. J5.
N8090 G0 Z-7.
N8092 X-.022 Y-2.5
N8094 Z-22.
N8096 G1 Z-33. F190.9
N8098 X.022 F381.8
N8100 G3 X2.5 Y0. I-.022 J2.5
N8102 X.022 Y2.5 I-2.5 J0.
N8104 G1 X-.022
N8106 G0 Z-8.
N8108 X5. Y0.
N8110 Z-22.
N8112 G1 Z-33. F190.9
N8114 G3 X0. Y5. I-5. J0. F381.8
N8116 X-5. Y0. I0. J-5.
N8118 X0. Y-5. I5. J0.
N8120 X5. Y0. I0. J5.
N8122 G0 Z-8.
N8124 X-.022 Y-2.5
N8126 Z-23.
N8128 G1 Z-34. F190.9
N8130 X.022 F381.8
N8132 G3 X2.5 Y0. I-.022 J2.5
N8134 X.022 Y2.5 I-2.5 J0.
N8136 G1 X-.022
N8138 G0 Z-9.
N8140 X5. Y0.
N8142 Z-23.
N8144 G1 Z-34. F190.9
N8146 G3 X0. Y5. I-5. J0. F381.8
N8148 X-5. Y0. I0. J-5.
N8150 X0. Y-5. I5. J0.
N8152 X5. Y0. I0. J5.
N8154 G0 Z-9.
N8156 X-.022 Y-2.5
N8158 Z-24.
N8160 G1 Z-35. F190.9
N8162 X.022 F381.8
N8164 G3 X2.5 Y0. I-.022 J2.5
N8166 X.022 Y2.5 I-2.5 J0.
N8168 G1 X-.022
N8170 G0 Z-10.
N8172 X5. Y0.
N8174 Z-24.
N8176 G1 Z-35. F190.9
N8178 G3 X0. Y5. I-5. J0. F381.8
N8180 X-5. Y0. I0. J-5.
N8182 X0. Y-5. I5. J0.
N8184 X5. Y0. I0. J5.
N8186 G0 Z-10.
N8188 X-.022 Y-2.5
N8190 Z-25.
N8192 G1 Z-36. F190.9
N8194 X.022 F381.8
N8196 G3 X2.5 Y0. I-.022 J2.5
N8198 X.022 Y2.5 I-2.5 J0.
N8200 G1 X-.022
N8202 G0 Z-11.
N8204 X5. Y0.
N8206 Z-25.
N8208 G1 Z-36. F190.9
N8210 G3 X0. Y5. I-5. J0. F381.8
N8212 X-5. Y0. I0. J-5.
N8214 X0. Y-5. I5. J0.
N8216 X5. Y0. I0. J5.
N8218 G0 Z-11.
N8220 X-.022 Y-2.5
N8222 Z-26.
N8224 G1 Z-37. F190.9
N8226 X.022 F381.8
N8228 G3 X2.5 Y0. I-.022 J2.5
N8230 X.022 Y2.5 I-2.5 J0.
N8232 G1 X-.022
N8234 G0 Z-12.
N8236 X5. Y0.
N8238 Z-26.
N8240 G1 Z-37. F190.9
N8242 G3 X0. Y5. I-5. J0. F381.8
N8244 X-5. Y0. I0. J-5.
N8246 X0. Y-5. I5. J0.
N8248 X5. Y0. I0. J5.
N8250 G0 Z-12.
N8252 X-.022 Y-2.5
N8254 Z-27.
N8256 G1 Z-38. F190.9
N8258 X.022 F381.8
N8260 G3 X2.5 Y0. I-.022 J2.5
N8262 X.022 Y2.5 I-2.5 J0.
N8264 G1 X-.022
N8266 G0 Z-13.
N8268 X5. Y0.
N8270 Z-27.
N8272 G1 Z-38. F190.9
N8274 G3 X0. Y5. I-5. J0. F381.8
N8276 X-5. Y0. I0. J-5.
N8278 X0. Y-5. I5. J0.
N8280 X5. Y0. I0. J5.
N8282 G0 Z-13.
N8284 X-.022 Y-2.5
N8286 Z-28.
N8288 G1 Z-39. F190.9
N8290 X.022 F381.8
N8292 G3 X2.5 Y0. I-.022 J2.5
N8294 X.022 Y2.5 I-2.5 J0.
N8296 G1 X-.022
N8298 G0 Z-14.
N8300 X5. Y0.
N8302 Z-28.
N8304 G1 Z-39. F190.9
N8306 G3 X0. Y5. I-5. J0. F381.8
N8308 X-5. Y0. I0. J-5.
N8310 X0. Y-5. I5. J0.
N8312 X5. Y0. I0. J5.
N8314 G0 Z-14.
N8316 X-.022 Y-2.5
N8318 Z-29.
N8320 G1 Z-40. F190.9
N8322 X.022 F381.8
N8324 G3 X2.5 Y0. I-.022 J2.5
N8326 X.022 Y2.5 I-2.5 J0.
N8328 G1 X-.022
N8330 G0 Z-15.
N8332 X5. Y0.
N8334 Z-29.
N8336 G1 Z-40. F190.9
N8338 G3 X0. Y5. I-5. J0. F381.8
N8340 X-5. Y0. I0. J-5.
N8342 X0. Y-5. I5. J0.
N8344 X5. Y0. I0. J5.
N8346 G0 Z25.
N8348 M5
N8350 G91 G28 Z0.
N8352 A0.
N8354 M01
N8356 T110 M6
N8358 G0 G90 G54 X-40. Y25. A0. S1145 M3
N8360 G43 H110 Z25.
N8362 G99 G81 Z-50. R25. F137.4
N8364 X40.
N8366 Y-25.
N8368 X-40.
N8370 G80
N8372 M5
N8374 G91 G28 Z0.
N8376 G28 X0. Y0. A0.
N8378 M30
%
