%
O0002(1)
(DATE=DD-MM-YY - 24-03-22 TIME=HH:MM - 15:57)
(MCX FILE - D:\MECHANICAL ENGINEERING (PROJECT)\CAM\MASTERCAM & SSCNC\TUTORIAL\MILLING\1\1.MCX-5)
(NC FILE - D:\MECHANICAL ENGINEERING (PROJECT)\CAM\MASTERCAM & SSCNC\TUTORIAL\MILLING\1\1.NC)
(MATERIAL - ALUMINUM MM - 2024)
( T1 |  5.0 CENTER DRILL | H1 )
( T2 |  8. DRILL | H2 )
( T3 |   50 FACE MILL | H3 )
( T4 |    11. BULL ENDMILL 3. RAD | H4 )
( T5 |    4. BULL ENDMILL 0.2 RAD | H5 )
N100G21
N102G0G17G40G49G80G90
N104T1M6
N106G0G90G54X-43.Y33.A0.S1145M3
N108G43H1Z26.
N110G99G81Z-13.R26.F57.3
N112X43.
N114Y-33.
N116X-43.
N118G80
N120M5
N122G91G28Z0.
N124A0.
N126M01
N128T2M6
N130G0G90G54X-43.Y33.A0.S1432M3
N132G43H2Z26.
N134G99G81Z-13.R26.F171.8
N136X43.
N138Y-33.
N140X-43.
N142G80
N144M5
N146G91G28Z0.
N148A0.
N150M01
N152T3M6
N154G0G90G54X-105.Y39.998A0.S763M3
N156G43H3Z26.
N158Z11.
N160G1Z.5F152.6
N162X80.F305.2
N164Y13.333
N166X-80.
N168Y-13.333
N170X80.
N172Y-39.998
N174X-105.
N176G0Z25.5
N178Y39.998
N180Z10.5
N182G1Z0.F152.6
N184X80.F305.2
N186Y13.333
N188X-80.
N190Y-13.333
N192X80.
N194Y-39.998
N196X-105.
N198G0Z25.
N200M5
N202G91G28Z0.
N204A0.
N206M01
N208T4M6
N210G0G90G54X-77.5Y11.A0.S1736M3
N212G43H4Z26.
N214Z11.
N216G1Z-1.F173.6
N218X-66.5F347.2
N220G2X-55.5Y0.I0.J-11.
N222G1Y-40.
N224G3X-50.Y-45.5I5.5J0.
N226G1X50.
N228G3X55.5Y-40.I0.J5.5
N230G1Y40.
N232G3X50.Y45.5I-5.5J0.
N234G1X-50.
N236G3X-55.5Y40.I0.J-5.5
N238G1Y0.
N240G2X-66.5Y-11.I-11.J0.
N242G1X-77.5
N244G0Z24.
N246Y11.
N248Z9.
N250G1Z-3.F173.6
N252X-66.5F347.2
N254G2X-55.5Y0.I0.J-11.
N256G1Y-40.
N258G3X-50.Y-45.5I5.5J0.
N260G1X50.
N262G3X55.5Y-40.I0.J5.5
N264G1Y40.
N266G3X50.Y45.5I-5.5J0.
N268G1X-50.
N270G3X-55.5Y40.I0.J-5.5
N272G1Y0.
N274G2X-66.5Y-11.I-11.J0.
N276G1X-77.5
N278G0Z22.
N280Y11.
N282Z7.
N284G1Z-5.F173.6
N286X-66.5F347.2
N288G2X-55.5Y0.I0.J-11.
N290G1Y-40.
N292G3X-50.Y-45.5I5.5J0.
N294G1X50.
N296G3X55.5Y-40.I0.J5.5
N298G1Y40.
N300G3X50.Y45.5I-5.5J0.
N302G1X-50.
N304G3X-55.5Y40.I0.J-5.5
N306G1Y0.
N308G2X-66.5Y-11.I-11.J0.
N310G1X-77.5
N312G0Z20.
N314Y11.
N316Z5.
N318G1Z-7.F173.6
N320X-66.5F347.2
N322G2X-55.5Y0.I0.J-11.
N324G1Y-40.
N326G3X-50.Y-45.5I5.5J0.
N328G1X50.
N330G3X55.5Y-40.I0.J5.5
N332G1Y40.
N334G3X50.Y45.5I-5.5J0.
N336G1X-50.
N338G3X-55.5Y40.I0.J-5.5
N340G1Y0.
N342G2X-66.5Y-11.I-11.J0.
N344G1X-77.5
N346G0Z18.
N348Y11.
N350Z3.
N352G1Z-9.F173.6
N354X-66.5F347.2
N356G2X-55.5Y0.I0.J-11.
N358G1Y-40.
N360G3X-50.Y-45.5I5.5J0.
N362G1X50.
N364G3X55.5Y-40.I0.J5.5
N366G1Y40.
N368G3X50.Y45.5I-5.5J0.
N370G1X-50.
N372G3X-55.5Y40.I0.J-5.5
N374G1Y0.
N376G2X-66.5Y-11.I-11.J0.
N378G1X-77.5
N380G0Z16.
N382Y11.
N384Z1.
N386G1Z-11.F173.6
N388X-66.5F347.2
N390G2X-55.5Y0.I0.J-11.
N392G1Y-40.
N394G3X-50.Y-45.5I5.5J0.
N396G1X50.
N398G3X55.5Y-40.I0.J5.5
N400G1Y40.
N402G3X50.Y45.5I-5.5J0.
N404G1X-50.
N406G3X-55.5Y40.I0.J-5.5
N408G1Y0.
N410G2X-66.5Y-11.I-11.J0.
N412G1X-77.5
N414G0Z14.
N416Y11.
N418Z-1.
N420G1Z-13.F173.6
N422X-66.5F347.2
N424G2X-55.5Y0.I0.J-11.
N426G1Y-40.
N428G3X-50.Y-45.5I5.5J0.
N430G1X50.
N432G3X55.5Y-40.I0.J5.5
N434G1Y40.
N436G3X50.Y45.5I-5.5J0.
N438G1X-50.
N440G3X-55.5Y40.I0.J-5.5
N442G1Y0.
N444G2X-66.5Y-11.I-11.J0.
N446G1X-77.5
N448G0Z26.
N450M5
N452G91G28Z0.
N454A0.
N456M01
N458T5M6
N460G0G90G54X-35.01Y-25.5A0.S2387M3
N462G43H5Z26.
N464Z11.
N466G1Z0.F119.3
N468X35.01F238.7
N470G3X35.5Y-25.I-.01J.5
N472G1Y-22.5
N474X-35.5
N476Y-19.5
N478X35.5
N480Y-16.5
N482X-35.5
N484Y-13.5
N486X35.5
N488Y-10.5
N490X-35.5
N492Y-7.5
N494X35.5
N496Y-4.5
N498X-35.5
N500Y-1.5
N502X35.5
N504Y1.5
N506X-35.5
N508Y4.5
N510X35.5
N512Y7.5
N514X-35.5
N516Y10.5
N518X35.5
N520Y13.5
N522X-35.5
N524Y16.5
N526X35.5
N528Y19.5
N530X-35.5
N532Y22.5
N534X35.5
N536Y25.
N538G3X35.01Y25.5I-.5J0.
N540G1X-35.01
N542G0Z25.
N544X4.Y20.
N546Z11.
N548G1Z0.F119.3
N550Y24.F238.7
N552G3X0.Y28.I-4.J0.
N554G1X-35.
N556G3X-38.Y25.I0.J-3.
N558G1Y-25.
N560G3X-35.Y-28.I3.J0.
N562G1X35.
N564G3X38.Y-25.I0.J3.
N566G1Y25.
N568G3X35.Y28.I-3.J0.
N570G1X0.
N572G3X-4.Y24.I0.J-4.
N574G1Y20.
N576G0Z25.
N578X-35.01Y-25.5
N580Z10.
N582G1Z-1.F119.3
N584X35.01F238.7
N586G3X35.5Y-25.I-.01J.5
N588G1Y-22.5
N590X-35.5
N592Y-19.5
N594X35.5
N596Y-16.5
N598X-35.5
N600Y-13.5
N602X35.5
N604Y-10.5
N606X-35.5
N608Y-7.5
N610X35.5
N612Y-4.5
N614X-35.5
N616Y-1.5
N618X35.5
N620Y1.5
N622X-35.5
N624Y4.5
N626X35.5
N628Y7.5
N630X-35.5
N632Y10.5
N634X35.5
N636Y13.5
N638X-35.5
N640Y16.5
N642X35.5
N644Y19.5
N646X-35.5
N648Y22.5
N650X35.5
N652Y25.
N654G3X35.01Y25.5I-.5J0.
N656G1X-35.01
N658G0Z24.
N660X4.Y20.
N662Z10.
N664G1Z-1.F119.3
N666Y24.F238.7
N668G3X0.Y28.I-4.J0.
N670G1X-35.
N672G3X-38.Y25.I0.J-3.
N674G1Y-25.
N676G3X-35.Y-28.I3.J0.
N678G1X35.
N680G3X38.Y-25.I0.J3.
N682G1Y25.
N684G3X35.Y28.I-3.J0.
N686G1X0.
N688G3X-4.Y24.I0.J-4.
N690G1Y20.
N692G0Z24.
N694X-35.01Y-25.5
N696Z9.
N698G1Z-2.F119.3
N700X35.01F238.7
N702G3X35.5Y-25.I-.01J.5
N704G1Y-22.5
N706X-35.5
N708Y-19.5
N710X35.5
N712Y-16.5
N714X-35.5
N716Y-13.5
N718X35.5
N720Y-10.5
N722X-35.5
N724Y-7.5
N726X35.5
N728Y-4.5
N730X-35.5
N732Y-1.5
N734X35.5
N736Y1.5
N738X-35.5
N740Y4.5
N742X35.5
N744Y7.5
N746X-35.5
N748Y10.5
N750X35.5
N752Y13.5
N754X-35.5
N756Y16.5
N758X35.5
N760Y19.5
N762X-35.5
N764Y22.5
N766X35.5
N768Y25.
N770G3X35.01Y25.5I-.5J0.
N772G1X-35.01
N774G0Z23.
N776X4.Y20.
N778Z9.
N780G1Z-2.F119.3
N782Y24.F238.7
N784G3X0.Y28.I-4.J0.
N786G1X-35.
N788G3X-38.Y25.I0.J-3.
N790G1Y-25.
N792G3X-35.Y-28.I3.J0.
N794G1X35.
N796G3X38.Y-25.I0.J3.
N798G1Y25.
N800G3X35.Y28.I-3.J0.
N802G1X0.
N804G3X-4.Y24.I0.J-4.
N806G1Y20.
N808G0Z23.
N810X-35.01Y-25.5
N812Z8.
N814G1Z-3.F119.3
N816X35.01F238.7
N818G3X35.5Y-25.I-.01J.5
N820G1Y-22.5
N822X-35.5
N824Y-19.5
N826X35.5
N828Y-16.5
N830X-35.5
N832Y-13.5
N834X35.5
N836Y-10.5
N838X-35.5
N840Y-7.5
N842X35.5
N844Y-4.5
N846X-35.5
N848Y-1.5
N850X35.5
N852Y1.5
N854X-35.5
N856Y4.5
N858X35.5
N860Y7.5
N862X-35.5
N864Y10.5
N866X35.5
N868Y13.5
N870X-35.5
N872Y16.5
N874X35.5
N876Y19.5
N878X-35.5
N880Y22.5
N882X35.5
N884Y25.
N886G3X35.01Y25.5I-.5J0.
N888G1X-35.01
N890G0Z22.
N892X4.Y20.
N894Z8.
N896G1Z-3.F119.3
N898Y24.F238.7
N900G3X0.Y28.I-4.J0.
N902G1X-35.
N904G3X-38.Y25.I0.J-3.
N906G1Y-25.
N908G3X-35.Y-28.I3.J0.
N910G1X35.
N912G3X38.Y-25.I0.J3.
N914G1Y25.
N916G3X35.Y28.I-3.J0.
N918G1X0.
N920G3X-4.Y24.I0.J-4.
N922G1Y20.
N924G0Z22.
N926X-35.01Y-25.5
N928Z7.
N930G1Z-4.F119.3
N932X35.01F238.7
N934G3X35.5Y-25.I-.01J.5
N936G1Y-22.5
N938X-35.5
N940Y-19.5
N942X35.5
N944Y-16.5
N946X-35.5
N948Y-13.5
N950X35.5
N952Y-10.5
N954X-35.5
N956Y-7.5
N958X35.5
N960Y-4.5
N962X-35.5
N964Y-1.5
N966X35.5
N968Y1.5
N970X-35.5
N972Y4.5
N974X35.5
N976Y7.5
N978X-35.5
N980Y10.5
N982X35.5
N984Y13.5
N986X-35.5
N988Y16.5
N990X35.5
N992Y19.5
N994X-35.5
N996Y22.5
N998X35.5
N1000Y25.
N1002G3X35.01Y25.5I-.5J0.
N1004G1X-35.01
N1006G0Z21.
N1008X4.Y20.
N1010Z7.
N1012G1Z-4.F119.3
N1014Y24.F238.7
N1016G3X0.Y28.I-4.J0.
N1018G1X-35.
N1020G3X-38.Y25.I0.J-3.
N1022G1Y-25.
N1024G3X-35.Y-28.I3.J0.
N1026G1X35.
N1028G3X38.Y-25.I0.J3.
N1030G1Y25.
N1032G3X35.Y28.I-3.J0.
N1034G1X0.
N1036G3X-4.Y24.I0.J-4.
N1038G1Y20.
N1040G0Z21.
N1042X-35.01Y-25.5
N1044Z6.
N1046G1Z-5.F119.3
N1048X35.01F238.7
N1050G3X35.5Y-25.I-.01J.5
N1052G1Y-22.5
N1054X-35.5
N1056Y-19.5
N1058X35.5
N1060Y-16.5
N1062X-35.5
N1064Y-13.5
N1066X35.5
N1068Y-10.5
N1070X-35.5
N1072Y-7.5
N1074X35.5
N1076Y-4.5
N1078X-35.5
N1080Y-1.5
N1082X35.5
N1084Y1.5
N1086X-35.5
N1088Y4.5
N1090X35.5
N1092Y7.5
N1094X-35.5
N1096Y10.5
N1098X35.5
N1100Y13.5
N1102X-35.5
N1104Y16.5
N1106X35.5
N1108Y19.5
N1110X-35.5
N1112Y22.5
N1114X35.5
N1116Y25.
N1118G3X35.01Y25.5I-.5J0.
N1120G1X-35.01
N1122G0Z20.
N1124X4.Y20.
N1126Z6.
N1128G1Z-5.F119.3
N1130Y24.F238.7
N1132G3X0.Y28.I-4.J0.
N1134G1X-35.
N1136G3X-38.Y25.I0.J-3.
N1138G1Y-25.
N1140G3X-35.Y-28.I3.J0.
N1142G1X35.
N1144G3X38.Y-25.I0.J3.
N1146G1Y25.
N1148G3X35.Y28.I-3.J0.
N1150G1X0.
N1152G3X-4.Y24.I0.J-4.
N1154G1Y20.
N1156G0Z26.
N1158M5
N1160G91G28Z0.
N1162G28X0.Y0.A0.
N1164M30
%